;FLAVOR:RepRap
;TIME:345
;Filament used: 0.896011m
;Layer height: 0.2
;MINX:88.999
;MINY:48.999
;MINZ:0.36
;MAXX:136
;MAXY:96
;MAXZ:11.11
;Generated with Cura_SteamEngine 4.6.1
T0
M190 S60
M104 S200
M109 S200
M82 ;absolute extrusion mode
G28 ;Home
G1 Z15.0 F6000 ;Move the platform down 15mm
;Prime the extruder
G92 E0
G1 F200 E3
G92 E0
M83 ;relative extrusion mode
G1 F1500 E-6.5
;LAYER_COUNT:49
;LAYER:-6
M107
G0 F7200 X92.057 Y56.595 Z0.36
;TYPE:SUPPORT-INTERFACE
G1 F1500 E6.5
G1 F1350 X92.512 Y55.855 E0.29413
G1 X93.029 Y55.135 E0.30012
G1 X93.585 Y54.472 E0.29297
G1 X94.205 Y53.833 E0.30146
G1 X94.828 Y53.276 E0.28296
G1 X95.55 Y52.722 E0.30814
G1 X96.256 Y52.256 E0.28642
G1 X97.047 Y51.814 E0.3068
G1 X97.822 Y51.453 E0.28948
G1 X98.672 Y51.131 E0.30776
G1 X99.479 Y50.89 E0.28517
G1 X100.335 Y50.7 E0.29689
G1 X101.19 Y50.575 E0.29257
G1 X102.108 Y50.508 E0.31165
G1 X102.589 Y50.5 E0.16288
G1 X122.437 Y50.5 E6.72033
G1 X123.356 Y50.533 E0.31136
G1 X124.297 Y50.639 E0.32063
G1 X125.13 Y50.795 E0.28695
G1 X125.999 Y51.026 E0.30445
G1 X126.826 Y51.311 E0.29618
G1 X127.649 Y51.664 E0.30321
G1 X128.405 Y52.057 E0.28849
G1 X129.145 Y52.512 E0.29413
G1 X129.865 Y53.029 E0.30012
G1 X130.52 Y53.578 E0.28938
G1 X131.167 Y54.205 E0.30506
G1 X131.724 Y54.828 E0.28296
G1 X132.276 Y55.547 E0.30692
G1 X132.744 Y56.256 E0.28764
G1 X133.186 Y57.047 E0.3068
G1 X133.547 Y57.822 E0.28948
G1 X133.869 Y58.672 E0.30776
G1 X134.11 Y59.479 E0.28517
G1 X134.3 Y60.335 E0.29689
G1 X134.425 Y61.19 E0.29257
G1 X134.492 Y62.108 E0.31165
G1 X134.5 Y62.556 E0.15171
G1 X134.5 Y82.444 E6.73388
G1 X134.465 Y83.384 E0.3185
G1 X134.361 Y84.297 E0.31113
G1 X134.204 Y85.135 E0.28868
G1 X133.968 Y86.017 E0.30914
G1 X133.731 Y86.717 E0.25023
G1 X133.686 Y86.832 E0.04181
G1 X133.336 Y87.649 E0.30094
G1 X132.95 Y88.392 E0.2835
G1 X132.488 Y89.145 E0.29912
G1 X131.971 Y89.865 E0.30012
G1 X131.422 Y90.52 E0.28938
G1 X130.795 Y91.167 E0.30506
G1 X130.172 Y91.724 E0.28296
G1 X129.45 Y92.278 E0.30814
G1 X128.744 Y92.744 E0.28642
G1 X127.953 Y93.186 E0.3068
G1 X127.178 Y93.547 E0.28948
G1 X126.328 Y93.869 E0.30776
G1 X125.521 Y94.11 E0.28517
G1 X124.665 Y94.3 E0.29689
G1 X123.81 Y94.425 E0.29257
G1 X122.892 Y94.492 E0.31165
G1 X122.411 Y94.5 E0.16288
G1 X102.563 Y94.5 E6.72033
G1 X101.616 Y94.465 E0.32086
G1 X100.703 Y94.361 E0.31113
G1 X99.865 Y94.204 E0.28868
G1 X99.001 Y93.974 E0.30273
G1 X98.174 Y93.689 E0.29618
G1 X97.351 Y93.336 E0.30321
G1 X96.595 Y92.943 E0.28849
G1 X95.855 Y92.488 E0.29413
G1 X95.135 Y91.971 E0.30012
G1 X94.475 Y91.418 E0.29154
G1 X93.833 Y90.795 E0.3029
G1 X93.276 Y90.172 E0.28296
G1 X92.722 Y89.45 E0.30814
G1 X92.256 Y88.744 E0.28642
G1 X91.814 Y87.952 E0.3071
G1 X91.455 Y87.184 E0.28704
G1 X91.131 Y86.328 E0.3099
G1 X90.89 Y85.521 E0.28517
G1 X90.7 Y84.665 E0.29689
G1 X90.574 Y83.798 E0.29664
G1 X90.508 Y82.887 E0.30926
G1 X90.5 Y82.444 E0.15002
G1 X90.5 Y62.554 E6.73456
G1 X90.535 Y61.616 E0.31782
G1 X90.639 Y60.703 E0.31113
G1 X90.8 Y59.85 E0.29392
G1 X91.026 Y59.001 E0.29747
G1 X91.311 Y58.174 E0.29618
G1 X91.664 Y57.351 E0.30321
G1 X92.057 Y56.595 E0.28849
G0 F7200 X96 Y52.424
G1 F1350 X96 Y92.577 E13.5954
G0 F7200 X108 Y94.5
G1 F1350 X108 Y50.5 E14.89796
G0 F7200 X120 Y50.5
G1 F1350 X120 Y94.5 E14.89796
G0 F7200 X132 Y89.825
G1 F1350 X132 Y55.188 E11.72774
G0 F600 X132 Y55.188 Z0.66
G0 F7200 X134.499 Y62.555
;TIME_ELAPSED:18.025223
;LAYER:-5
M140 S60
;TYPE:SUPPORT
G1 F1350 X134.491 Y62.108 E0.12614
G1 X134.423 Y61.19 E0.25973
G1 X134.299 Y60.334 E0.24405
G1 X134.109 Y59.478 E0.24741
G1 X133.868 Y58.672 E0.23737
G1 X133.546 Y57.822 E0.25647
G1 X133.185 Y57.047 E0.24123
G1 X132.743 Y56.256 E0.25567
G1 X132.274 Y55.546 E0.24009
G1 X131.723 Y54.828 E0.25537
G1 X131.166 Y54.204 E0.23601
G1 X130.519 Y53.577 E0.25421
G1 X129.864 Y53.028 E0.24115
G1 X129.143 Y52.511 E0.25033
G1 X128.404 Y52.056 E0.24487
G1 X127.648 Y51.664 E0.24028
G1 X126.825 Y51.31 E0.25279
G1 X125.997 Y51.026 E0.24699
G1 X125.128 Y50.795 E0.25371
G1 X124.296 Y50.638 E0.2389
G1 X123.355 Y50.533 E0.26716
G1 X122.436 Y50.499 E0.25948
G1 X120.645 Y50.5 E0.50535
G1 X134.499 Y64.354 E5.52819
G1 X134.499 Y73.122 E2.47396
G1 X111.877 Y50.5 E9.02691
G1 X103.108 Y50.5 E2.47425
G1 X134.499 Y81.89 E12.52582
G1 X134.499 Y82.443 E0.15603
G1 X134.464 Y83.384 E0.26569
G1 X134.36 Y84.297 E0.25928
G1 X134.203 Y85.134 E0.24029
G1 X133.967 Y86.016 E0.25762
G1 X133.73 Y86.717 E0.20879
G1 X133.684 Y86.832 E0.03495
G1 X133.334 Y87.648 E0.25053
G1 X132.949 Y88.391 E0.23612
G1 X132.677 Y88.836 E0.14716
G1 X96.16 Y52.319 E14.57146
G1 X95.549 Y52.722 E0.20652
G1 X94.827 Y53.276 E0.25678
G1 X94.204 Y53.832 E0.23561
G1 X93.584 Y54.471 E0.25122
G1 X93.028 Y55.134 E0.24415
G1 X92.511 Y55.855 E0.25033
G1 X92.056 Y56.594 E0.24487
G1 X91.922 Y56.849 E0.08128
G1 X128.148 Y93.075 E14.45534
G1 X127.951 Y93.186 E0.0638
G1 X127.177 Y93.547 E0.24098
G1 X126.326 Y93.869 E0.25673
G1 X125.519 Y94.11 E0.23764
G1 X124.664 Y94.299 E0.24707
G1 X123.809 Y94.424 E0.24381
G1 X122.89 Y94.492 E0.26001
G1 X122.41 Y94.499 E0.13545
G1 X120.804 Y94.499 E0.45315
G1 X90.499 Y64.194 E12.09267
G1 X90.499 Y72.962 E2.47396
G1 X112.036 Y94.499 E8.59396
G1 X103.267 Y94.499 E2.47425
G1 X90.499 Y81.73 E5.09504
G0 F7200 X90.499 Y82.443
G1 F1350 X90.506 Y82.887 E0.12529
G1 X90.573 Y83.797 E0.25746
G1 X90.699 Y84.664 E0.2472
G1 X90.889 Y85.521 E0.24768
G1 X91.13 Y86.327 E0.23737
G1 X91.454 Y87.183 E0.25825
G1 X91.812 Y87.952 E0.23934
G1 X92.255 Y88.744 E0.25605
G1 X92.721 Y89.45 E0.23869
G1 X93.275 Y90.172 E0.25678
G1 X93.832 Y90.794 E0.23559
G1 X94.474 Y91.418 E0.25261
G1 X95.134 Y91.97 E0.24277
G1 X95.853 Y92.488 E0.25004
G1 X96.594 Y92.942 E0.2452
G1 X97.35 Y93.335 E0.24041
G1 X98.173 Y93.688 E0.25268
G1 X98.999 Y93.973 E0.24655
G1 X99.863 Y94.204 E0.25235
G1 X100.702 Y94.361 E0.24084
G1 X101.615 Y94.465 E0.25928
G1 X102.562 Y94.499 E0.26738
G1 X103.267 Y94.499 E0.19892
G0 F600 X103.267 Y94.499 Z0.86
G0 F7200 X94.287 Y93.211
;TIME_ELAPSED:35.423088
;LAYER:-4
;TYPE:SUPPORT-INTERFACE
G1 F1800 X95.116 Y93.798 E0.09554
G1 X95.934 Y94.292 E0.08988
G1 X96.839 Y94.752 E0.09548
G1 X97.756 Y95.135 E0.09347
G1 X98.672 Y95.442 E0.09086
G1 X99.611 Y95.684 E0.0912
G1 X100.601 Y95.862 E0.09461
G1 X101.563 Y95.965 E0.091
G1 X102.537 Y96 E0.09167
G1 X122.51 Y95.998 E1.87852
G1 X123.041 Y95.986 E0.04995
G1 X124.038 Y95.908 E0.09406
G1 X124.99 Y95.765 E0.09054
G1 X125.978 Y95.539 E0.09532
G1 X126.909 Y95.255 E0.09155
G1 X127.822 Y94.903 E0.09203
G1 X128.736 Y94.468 E0.0952
G1 X129.581 Y93.99 E0.09131
G1 X130.42 Y93.427 E0.09503
G1 X130.968 Y93 E0.06534
G1 X94.031 Y93 E3.47403
G0 F7200 X130.968 Y93
G1 F1800 X131.182 Y92.834 E0.02547
G1 X131.917 Y92.168 E0.09329
G1 X132.594 Y91.459 E0.0922
G1 X133.215 Y90.707 E0.09173
G1 X133.715 Y90 E0.08144
G1 X91.29 Y90 E3.99019
G1 X91.009 Y89.581 E0.04745
G1 X90.531 Y88.736 E0.09131
G1 X90.095 Y87.821 E0.09533
G1 X89.779 Y87 E0.08274
G1 X135.216 Y87 E4.27348
G1 X135.442 Y86.327 E0.06677
G1 X135.684 Y85.388 E0.0912
G1 X135.862 Y84.398 E0.09461
G1 X135.904 Y84 E0.03764
G1 X89.088 Y84 E4.40318
G1 X89.013 Y83.035 E0.09103
G1 X89.001 Y82.51 E0.04939
G1 X89 Y81 E0.14202
G1 X136 Y81 E4.42048
G1 X136 Y78 E0.28216
G1 X89 Y78 E4.42048
G1 X89 Y75 E0.28216
G1 X136 Y75 E4.42048
G1 X136 Y72 E0.28216
G1 X89 Y72 E4.42048
G1 X89 Y69 E0.28216
G1 X136 Y69 E4.42048
G1 X136 Y66 E0.28216
G1 X89 Y66 E4.42048
G1 X89 Y63 E0.28216
G1 X136 Y63 E4.42048
G1 X135.999 Y62.482 E0.04872
G1 X135.987 Y61.962 E0.04892
G1 X135.906 Y60.938 E0.09661
G1 X135.766 Y60.009 E0.08836
G1 X135.764 Y60 E0.00087
G1 X89.246 Y60 E4.37515
G1 X89.316 Y59.61 E0.03727
G1 X89.558 Y58.671 E0.0912
G1 X89.865 Y57.755 E0.09086
G1 X90.181 Y57 E0.07698
G1 X134.82 Y57 E4.19842
G1 X134.469 Y56.263 E0.07678
G1 X133.991 Y55.418 E0.09131
G1 X133.427 Y54.578 E0.09516
G1 X132.978 Y54 E0.06884
G1 X92.026 Y54 E3.85165
G1 X92.406 Y53.539 E0.05619
G1 X93.085 Y52.828 E0.09247
G1 X93.818 Y52.164 E0.09302
G1 X94.58 Y51.571 E0.09081
G1 X95.419 Y51.008 E0.09503
G1 X95.434 Y51 E0.0016
G1 X129.552 Y51 E3.20889
G0 F7200 X129.066 Y50.707
G1 F1800 X128.161 Y50.247 E0.09548
G1 X127.244 Y49.864 E0.09347
G1 X126.328 Y49.557 E0.09086
G1 X125.389 Y49.315 E0.0912
G1 X124.399 Y49.137 E0.09461
G1 X123.437 Y49.034 E0.091
G1 X122.463 Y48.999 E0.09167
G1 X102.49 Y49 E1.87852
G1 X101.959 Y49.012 E0.04995
G1 X100.962 Y49.09 E0.09406
G1 X100.01 Y49.233 E0.09054
G1 X99.024 Y49.458 E0.09512
G1 X98.091 Y49.743 E0.09175
G1 X97.178 Y50.095 E0.09203
G1 X96.264 Y50.53 E0.0952
G1 X95.434 Y51 E0.08971
G0 F600 X95.434 Y51 Z1.06
G0 F7200 X135 Y87.565
;TIME_ELAPSED:62.545400
;LAYER:-3
;TYPE:SUPPORT-INTERFACE
G1 F1800 X135 Y57.426 E2.83466
G1 X135.253 Y58.082 E0.06613
G1 X135.541 Y59.023 E0.09256
G1 X135.766 Y60.009 E0.09512
G1 X135.906 Y60.938 E0.08836
G1 X135.987 Y61.962 E0.09661
G1 X135.999 Y62.482 E0.04892
G1 X136 Y82.473 E1.88021
G1 X135.965 Y83.436 E0.09063
G1 X135.862 Y84.398 E0.091
G1 X135.684 Y85.388 E0.09461
G1 X135.442 Y86.327 E0.0912
G1 X135.14 Y87.229 E0.08946
G0 F7200 X135 Y57.426
G1 F1800 X134.904 Y57.177 E0.0251
G1 X134.469 Y56.263 E0.0952
G1 X133.991 Y55.418 E0.09131
G1 X133.427 Y54.578 E0.09516
G1 X132.835 Y53.817 E0.09068
G1 X132.171 Y53.084 E0.09302
G1 X132 Y52.921 E0.02222
G1 X132 Y92.082 E3.6832
G1 X131.917 Y92.168 E0.01124
G1 X131.182 Y92.834 E0.09329
G1 X130.419 Y93.427 E0.09089
G1 X129.58 Y93.99 E0.09503
G1 X128.999 Y94.319 E0.0628
G1 X129 Y50.674 E4.10493
G1 X128.161 Y50.247 E0.08854
G1 X127.244 Y49.864 E0.09347
G1 X126.328 Y49.557 E0.09086
G1 X126 Y49.473 E0.03184
G1 X125.999 Y95.533 E4.33207
G1 X125.977 Y95.539 E0.00214
G1 X124.989 Y95.765 E0.09532
G1 X124.037 Y95.908 E0.09054
G1 X123.04 Y95.986 E0.09406
G1 X122.999 Y95.987 E0.00386
G1 X123 Y49.019 E4.41747
G1 X122.463 Y48.999 E0.05054
G1 X120 Y48.999 E0.23165
G1 X119.999 Y95.999 E4.42048
G1 X116.999 Y95.999 E0.28216
G1 X117 Y48.999 E4.42048
G1 X114 Y48.999 E0.28216
G1 X113.999 Y95.999 E4.42048
G1 X110.999 Y95.999 E0.28216
G1 X111 Y48.999 E4.42048
G1 X108 Y48.999 E0.28216
G1 X107.999 Y95.999 E4.42048
G1 X104.999 Y95.999 E0.28216
G1 X105 Y48.999 E4.42048
G1 X102.49 Y49 E0.23607
G1 X102 Y49.011 E0.0461
G1 X101.999 Y95.979 E4.41747
G1 X101.562 Y95.964 E0.04113
G1 X100.6 Y95.861 E0.091
G1 X99.61 Y95.683 E0.09461
G1 X98.999 Y95.525 E0.05936
G1 X99 Y49.465 E4.33207
G1 X98.091 Y49.743 E0.0894
G1 X97.178 Y50.095 E0.09203
G1 X96.264 Y50.53 E0.0952
G1 X96 Y50.679 E0.02851
G1 X95.999 Y94.324 E4.10493
G1 X95.933 Y94.291 E0.00694
G1 X95.115 Y93.797 E0.08988
G1 X94.286 Y93.21 E0.09554
G1 X93.539 Y92.593 E0.09112
G1 X92.999 Y92.077 E0.07025
G1 X93 Y52.917 E3.68311
G1 X92.406 Y53.539 E0.08089
G1 X91.789 Y54.286 E0.09112
G1 X91.202 Y55.115 E0.09554
G1 X90.708 Y55.933 E0.08988
G1 X90.248 Y56.838 E0.09548
G1 X90 Y57.431 E0.06045
G1 X89.999 Y87.573 E2.83494
G1 X89.743 Y86.908 E0.06702
G1 X89.458 Y85.975 E0.09175
G1 X89.233 Y84.989 E0.09512
G1 X89.09 Y84.037 E0.09054
G1 X89.012 Y83.034 E0.09462
G1 X89 Y82.509 E0.04939
G1 X88.999 Y62.525 E1.87955
G1 X89.034 Y61.562 E0.09063
G1 X89.137 Y60.6 E0.091
G1 X89.315 Y59.61 E0.09461
G1 X89.558 Y58.671 E0.09122
G1 X89.865 Y57.755 E0.09086
G0 F600 X89.865 Y57.755 Z1.66
G0 F7200 X104 Y81
;TIME_ELAPSED:90.130669
;LAYER:0
M106 S255
;TYPE:WALL-OUTER
;MESH:single_mesh.stl
G1 F1800 X104 Y64 E2.39835
G1 X121 Y64 E2.39835
G1 X121 Y81 E2.39835
G1 X104 Y81 E2.39835
G0 F3600 X104 Y79.5
G0 X104.1 Y79.5
G0 X106.99 Y78.01
;TYPE:SKIN
G1 F1800 X106.99 Y66.99 E1.55469
G1 X118.01 Y66.99 E1.55469
G1 X118.01 Y78.01 E1.55469
G1 X106.99 Y78.01 E1.55469
G0 F3600 X110.6 Y76.659
G1 F1800 X108.339 Y74.398 E0.45111
G0 F3600 X108.339 Y70.155
G1 F1800 X114.843 Y76.659 E1.29765
G0 F3600 X116.659 Y74.232
G1 F1800 X110.766 Y68.339 E1.17575
G0 F3600 X115.008 Y68.339
G1 F1800 X116.659 Y69.99 E0.3294
;MESH:NONMESH
G0 F600 X116.659 Y69.99 Z1.71
G0 F3600 X104.07 Y80.93
G0 X104 Y81
;TIME_ELAPSED:95.380119
;LAYER:1
;TYPE:WALL-OUTER
;MESH:single_mesh.stl
G1 F1786.3 X104 Y64 E1.5989
G1 X121 Y64 E1.5989
G1 X121 Y81 E1.5989
G1 X104 Y81 E1.5989
G0 F5400 X104 Y79.5
G0 X104.1 Y79.5
G0 X106.99 Y78.01
;TYPE:SKIN
G1 F1786.3 X106.99 Y66.99 E1.03646
G1 X118.01 Y66.99 E1.03646
G1 X118.01 Y78.01 E1.03646
G1 X106.99 Y78.01 E1.03646
G0 F5400 X108.339 Y69.851
G1 F1786.3 X109.851 Y68.339 E0.20111
G0 F5400 X114.093 Y68.339
G1 F1786.3 X108.339 Y74.094 E0.76541
G0 F5400 X110.016 Y76.659
G1 F1786.3 X116.659 Y70.017 E0.88352
G0 F5400 X116.659 Y74.259
G1 F1786.3 X114.259 Y76.659 E0.31923
;MESH:NONMESH
G0 F600 X114.259 Y76.659 Z1.91
G0 F5400 X104.07 Y80.93
G0 X104 Y81
;TIME_ELAPSED:100.532253
;LAYER:2
;TYPE:WALL-OUTER
;MESH:single_mesh.stl
G1 F1711.2 X104 Y64 E1.5989
G1 X121 Y64 E1.5989
G1 X121 Y81 E1.5989
G1 X104 Y81 E1.5989
G0 F7200 X104 Y79.5
G0 X104.1 Y79.5
G0 X106.99 Y78.01
;TYPE:SKIN
G1 F1711.2 X106.99 Y66.99 E1.03646
G1 X118.01 Y66.99 E1.03646
G1 X118.01 Y78.01 E1.03646
G1 X106.99 Y78.01 E1.03646
G0 F7200 X110.6 Y76.659
G1 F1711.2 X108.339 Y74.398 E0.30074
G0 F7200 X108.339 Y70.155
G1 F1711.2 X114.843 Y76.659 E0.8651
G0 F7200 X116.659 Y74.232
G1 F1711.2 X110.766 Y68.339 E0.78383
G0 F7200 X115.008 Y68.339
G1 F1711.2 X116.659 Y69.99 E0.2196
;MESH:NONMESH
G0 F600 X116.659 Y69.99 Z2.11
G0 F7200 X104.07 Y80.93
G0 X104 Y81
;TIME_ELAPSED:105.842250
;LAYER:3
;TYPE:WALL-OUTER
;MESH:single_mesh.stl
G1 F1742.1 X104 Y64 E1.5989
G1 X121 Y64 E1.5989
G1 X121 Y81 E1.5989
G1 X104 Y81 E1.5989
G0 F7200 X104 Y79.5
G0 X104.1 Y79.5
G0 X106.99 Y78.01
;TYPE:SKIN
G1 F1742.1 X106.99 Y66.99 E1.03646
G1 X118.01 Y66.99 E1.03646
G1 X118.01 Y78.01 E1.03646
G1 X106.99 Y78.01 E1.03646
G0 F7200 X108.339 Y69.851
G1 F1742.1 X109.851 Y68.339 E0.20111
G0 F7200 X114.093 Y68.339
G1 F1742.1 X108.339 Y74.094 E0.76541
G0 F7200 X110.016 Y76.659
G1 F1742.1 X116.659 Y70.017 E0.88352
G0 F7200 X116.659 Y74.259
G1 F1742.1 X114.259 Y76.659 E0.31923
;MESH:NONMESH
G0 F600 X114.259 Y76.659 Z2.31
G0 F7200 X105.199 Y65.199
;TIME_ELAPSED:111.086474
;LAYER:4
;TYPE:FILL
;MESH:single_mesh.stl
G1 F2373.8 X119.799 Y79.799 E1.94196
G1 X120.329 Y80.329
G0 F7200 X105.199 Y79.799
G1 F2373.8 X119.799 Y65.199 E1.94196
G1 X120.329 Y64.669
G0 F7200 X104.07 Y80.93
G0 X104 Y81
;TYPE:WALL-OUTER
G1 F1186.9 X104 Y64 E1.5989
G1 X121 Y64 E1.5989
G1 X121 Y81 E1.5989
G1 X104 Y81 E1.5989
G0 F7200 X104 Y79.5
G0 X107 Y78
;MESH:NONMESH
G0 F600 X107 Y78 Z2.51
G0 F7200 X105.199 Y65.199
;TIME_ELAPSED:116.270417
;LAYER:5
;TYPE:FILL
;MESH:single_mesh.stl
G1 F2366.5 X119.799 Y79.799 E1.94196
G1 X120.329 Y80.329
G0 F7200 X105.199 Y79.799
G1 F2366.5 X119.799 Y65.199 E1.94196
G1 X120.329 Y64.669
G0 F7200 X104.07 Y80.93
G0 X104 Y81
;TYPE:WALL-OUTER
G1 F1183.2 X104 Y64 E1.5989
G1 X121 Y64 E1.5989
G1 X121 Y81 E1.5989
G1 X104 Y81 E1.5989
G0 F7200 X104 Y79.5
G0 X107 Y78
;MESH:NONMESH
G0 F600 X107 Y78 Z2.71
G0 F7200 X105.199 Y65.199
;TIME_ELAPSED:121.468291
;LAYER:6
;TYPE:FILL
;MESH:single_mesh.stl
G1 F2366.5 X119.799 Y79.799 E1.94196
G1 X120.329 Y80.329
G0 F7200 X105.199 Y79.799
G1 F2366.5 X119.799 Y65.199 E1.94196
G1 X120.329 Y64.669
G0 F7200 X104.07 Y80.93
G0 X104 Y81
;TYPE:WALL-OUTER
G1 F1183.2 X104 Y64 E1.5989
G1 X121 Y64 E1.5989
G1 X121 Y81 E1.5989
G1 X104 Y81 E1.5989
G0 F7200 X104 Y79.5
G0 X107 Y78
;MESH:NONMESH
G0 F600 X107 Y78 Z2.91
G0 F7200 X105.199 Y65.199
;TIME_ELAPSED:126.666165
;LAYER:7
;TYPE:FILL
;MESH:single_mesh.stl
G1 F2366.5 X119.799 Y79.799 E1.94196
G1 X120.329 Y80.329
G0 F7200 X105.199 Y79.799
G1 F2366.5 X119.799 Y65.199 E1.94196
G1 X120.329 Y64.669
G0 F7200 X104.07 Y80.93
G0 X104 Y81
;TYPE:WALL-OUTER
G1 F1183.2 X104 Y64 E1.5989
