;FLAVOR:Marlin(Volumetric)
;TIME:344
;Filament used: 5716.01mm3
;Layer height: 0.2
;MINX:88.999
;MINY:48.999
;MINZ:0.36
;MAXX:136
;MAXY:96
;MAXZ:11.11
;Generated with Cura_SteamEngine 4.6.1
M190 S60
M104 S200
M109 S200
M82 ;absolute extrusion mode
G28 ;Home
G1 Z15.0 F6000 ;Move the platform down 15mm
;Prime the extruder
G92 E0
G1 F200 E3
G92 E0
G92 E0
G92 E0
G10
;LAYER_COUNT:49
;LAYER:-6
M107
G0 F7200 X92.057 Y56.595 Z0.36
;TYPE:SUPPORT-INTERFACE
G11
G1 F1350 X92.512 Y55.855 E1.87637
G1 X93.029 Y55.135 E3.79098
G1 X93.585 Y54.472 E5.65998
G1 X94.205 Y53.833 E7.58313
G1 X94.828 Y53.276 E9.38822
G1 X95.55 Y52.722 E11.35394
G1 X96.256 Y52.256 E13.18114
G1 X97.047 Y51.814 E15.13835
G1 X97.822 Y51.453 E16.98505
G1 X98.672 Y51.131 E18.94838
G1 X99.479 Y50.89 E20.76757
G1 X100.335 Y50.7 E22.66152
G1 X101.19 Y50.575 E24.52796
G1 X102.108 Y50.508 E26.51611
G1 X102.589 Y50.5 E27.55521
G1 X122.437 Y50.5 E70.42689
G1 X123.356 Y50.533 E72.41321
G1 X124.297 Y50.639 E74.45863
G1 X125.13 Y50.795 E76.28919
G1 X125.999 Y51.026 E78.23142
G1 X126.826 Y51.311 E80.12083
G1 X127.649 Y51.664 E82.05514
G1 X128.405 Y52.057 E83.89556
G1 X129.145 Y52.512 E85.77193
G1 X129.865 Y53.029 E87.68654
G1 X130.52 Y53.578 E89.53258
G1 X131.167 Y54.205 E91.47866
G1 X131.724 Y54.828 E93.28375
G1 X132.276 Y55.547 E95.2417
G1 X132.744 Y56.256 E97.07669
G1 X133.186 Y57.047 E99.0339
G1 X133.547 Y57.822 E100.8806
G1 X133.869 Y58.672 E102.84393
G1 X134.11 Y59.479 E104.66312
G1 X134.3 Y60.335 E106.55707
G1 X134.425 Y61.19 E108.42351
G1 X134.492 Y62.108 E110.41166
G1 X134.5 Y62.556 E111.3795
G1 X134.5 Y82.444 E154.33758
G1 X134.465 Y83.384 E156.36938
G1 X134.361 Y84.297 E158.35422
G1 X134.204 Y85.135 E160.19579
G1 X133.968 Y86.017 E162.16793
G1 X133.731 Y86.717 E163.76424
G1 X133.686 Y86.832 E164.03098
G1 X133.336 Y87.649 E165.95082
G1 X132.95 Y88.392 E167.75935
G1 X132.488 Y89.145 E169.66756
G1 X131.971 Y89.865 E171.58217
G1 X131.422 Y90.52 E173.42821
G1 X130.795 Y91.167 E175.3743
G1 X130.172 Y91.724 E177.17939
G1 X129.45 Y92.278 E179.14511
G1 X128.744 Y92.744 E180.97231
G1 X127.953 Y93.186 E182.92952
G1 X127.178 Y93.547 E184.77622
G1 X126.328 Y93.869 E186.73954
G1 X125.521 Y94.11 E188.55873
G1 X124.665 Y94.3 E190.45269
G1 X123.81 Y94.425 E192.31912
G1 X122.892 Y94.492 E194.30728
G1 X122.411 Y94.5 E195.34638
G1 X102.563 Y94.5 E238.21806
G1 X101.616 Y94.465 E240.26498
G1 X100.703 Y94.361 E242.24981
G1 X99.865 Y94.204 E244.09138
G1 X99.001 Y93.974 E246.02262
G1 X98.174 Y93.689 E247.91204
G1 X97.351 Y93.336 E249.84634
G1 X96.595 Y92.943 E251.68676
G1 X95.855 Y92.488 E253.56313
G1 X95.135 Y91.971 E255.47774
G1 X94.475 Y91.418 E257.33761
G1 X93.833 Y90.795 E259.26992
G1 X93.276 Y90.172 E261.07502
G1 X92.722 Y89.45 E263.04073
G1 X92.256 Y88.744 E264.86794
G1 X91.814 Y87.952 E266.82703
G1 X91.455 Y87.184 E268.6582
G1 X91.131 Y86.328 E270.63518
G1 X90.89 Y85.521 E272.45437
G1 X90.7 Y84.665 E274.34833
G1 X90.574 Y83.798 E276.24072
G1 X90.508 Y82.887 E278.21364
G1 X90.5 Y82.444 E279.17067
G1 X90.5 Y62.554 E322.13307
G1 X90.535 Y61.616 E324.16056
G1 X90.639 Y60.703 E326.1454
G1 X90.8 Y59.85 E328.02041
G1 X91.026 Y59.001 E329.91811
G1 X91.311 Y58.174 E331.80753
G1 X91.664 Y57.351 E333.74183
G1 X92.057 Y56.595 E335.58225
G0 F7200 X96 Y52.424
G1 F1350 X96 Y92.577 E422.31273
G0 F7200 X108 Y94.5
G1 F1350 X108 Y50.5 E517.35273
G0 F7200 X120 Y50.5
G1 F1350 X120 Y94.5 E612.39273
G0 F7200 X132 Y89.825
G1 F1350 X132 Y55.188 E687.20865
G0 F600 X132 Y55.188 Z0.66
G0 F7200 X134.499 Y62.555
;TIME_ELAPSED:17.898068
;LAYER:-5
M140 S60
;TYPE:SUPPORT
G1 F1350 X134.491 Y62.108 E688.01338
G1 X134.423 Y61.19 E689.67031
G1 X134.299 Y60.334 E691.22719
G1 X134.109 Y59.478 E692.80549
G1 X133.868 Y58.672 E694.31976
G1 X133.546 Y57.822 E695.95586
G1 X133.185 Y57.047 E697.49478
G1 X132.743 Y56.256 E699.12578
G1 X132.274 Y55.546 E700.65744
G1 X131.723 Y54.828 E702.28654
G1 X131.166 Y54.204 E703.79212
G1 X130.519 Y53.577 E705.41386
G1 X129.864 Y53.028 E706.95223
G1 X129.143 Y52.511 E708.54919
G1 X128.404 Y52.056 E710.1113
G1 X127.648 Y51.664 E711.64416
G1 X126.825 Y51.31 E713.25679
G1 X125.997 Y51.026 E714.83242
G1 X125.128 Y50.795 E716.45094
G1 X124.296 Y50.638 E717.97497
G1 X123.355 Y50.533 E719.67928
G1 X122.436 Y50.499 E721.33462
G1 X120.645 Y50.5 E724.55842
G1 X134.499 Y64.354 E759.82494
G1 X134.499 Y73.122 E775.60734
G1 X111.877 Y50.5 E833.19355
G1 X103.108 Y50.5 E848.97775
G1 X134.499 Y81.89 E928.88492
G1 X134.499 Y82.443 E929.88032
G1 X134.464 Y83.384 E931.57529
G1 X134.36 Y84.297 E933.22932
G1 X134.203 Y85.134 E934.7622
G1 X133.967 Y86.016 E936.40565
G1 X133.73 Y86.717 E937.73761
G1 X133.684 Y86.832 E937.96056
G1 X133.334 Y87.648 E939.55876
G1 X132.949 Y88.391 E941.06505
G1 X132.677 Y88.836 E942.00383
G1 X96.16 Y52.319 E1034.96093
G1 X95.549 Y52.722 E1036.27842
G1 X94.827 Y53.276 E1037.91652
G1 X94.204 Y53.832 E1039.41956
G1 X93.584 Y54.471 E1041.02219
G1 X93.028 Y55.134 E1042.57969
G1 X92.511 Y55.855 E1044.17665
G1 X92.056 Y56.594 E1045.73877
G1 X91.922 Y56.849 E1046.25728
G1 X128.148 Y93.075 E1138.47362
G1 X127.951 Y93.186 E1138.88064
G1 X127.177 Y93.547 E1140.41792
G1 X126.326 Y93.869 E1142.05571
G1 X125.519 Y94.11 E1143.5717
G1 X124.664 Y94.299 E1145.14785
G1 X123.809 Y94.424 E1146.70321
G1 X122.89 Y94.492 E1148.36194
G1 X122.41 Y94.499 E1149.22603
G1 X120.804 Y94.499 E1152.11683
G1 X90.499 Y64.194 E1229.26076
G1 X90.499 Y72.962 E1245.04316
G1 X112.036 Y94.499 E1299.86742
G1 X103.267 Y94.499 E1315.65162
G1 X90.499 Y81.73 E1348.15491
G0 F7200 X90.499 Y82.443
G1 F1350 X90.506 Y82.887 E1348.95421
G1 X90.573 Y83.797 E1350.59664
G1 X90.699 Y84.664 E1352.17364
G1 X90.889 Y85.521 E1353.75369
G1 X91.13 Y86.327 E1355.26796
G1 X91.454 Y87.183 E1356.91544
G1 X91.812 Y87.952 E1358.44229
G1 X92.255 Y88.744 E1360.07574
G1 X92.721 Y89.45 E1361.59841
G1 X93.275 Y90.172 E1363.23651
G1 X93.832 Y90.794 E1364.73941
G1 X94.474 Y91.418 E1366.35093
G1 X95.134 Y91.97 E1367.89966
G1 X95.853 Y92.488 E1369.49476
G1 X96.594 Y92.942 E1371.059
G1 X97.35 Y93.335 E1372.59268
G1 X98.173 Y93.688 E1374.2046
G1 X98.999 Y93.973 E1375.77741
G1 X99.863 Y94.204 E1377.38724
G1 X100.702 Y94.361 E1378.92365
G1 X101.615 Y94.465 E1380.57768
G1 X102.562 Y94.499 E1382.28338
G1 X103.267 Y94.499 E1383.55238
G0 F600 X103.267 Y94.499 Z0.86
G0 F7200 X94.287 Y93.211
;TIME_ELAPSED:35.295933
;LAYER:-4
;TYPE:SUPPORT-INTERFACE
G1 F1800 X95.116 Y93.798 E1384.16185
G1 X95.934 Y94.292 E1384.7352
G1 X96.839 Y94.752 E1385.34432
G1 X97.756 Y95.135 E1385.94058
G1 X98.672 Y95.442 E1386.52023
G1 X99.611 Y95.684 E1387.10204
G1 X100.601 Y95.862 E1387.70556
G1 X101.563 Y95.965 E1388.28606
G1 X102.537 Y96 E1388.87084
G1 X122.51 Y95.998 E1400.85464
G1 X123.041 Y95.986 E1401.17332
G1 X124.038 Y95.908 E1401.77335
G1 X124.99 Y95.765 E1402.35096
G1 X125.978 Y95.539 E1402.95907
G1 X126.909 Y95.255 E1403.54308
G1 X127.822 Y94.903 E1404.13018
G1 X128.736 Y94.468 E1404.73752
G1 X129.581 Y93.99 E1405.32002
G1 X130.42 Y93.427 E1405.92626
G1 X130.968 Y93 E1406.34309
G1 X94.031 Y93 E1428.50529
G0 F7200 X130.968 Y93
G1 F1800 X131.182 Y92.834 E1428.66779
G1 X131.917 Y92.168 E1429.2629
G1 X132.594 Y91.459 E1429.85109
G1 X133.215 Y90.707 E1430.43625
G1 X133.715 Y90 E1430.95581
G1 X91.29 Y90 E1456.41081
G1 X91.009 Y89.581 E1456.71351
G1 X90.531 Y88.736 E1457.29601
G1 X90.095 Y87.821 E1457.90415
G1 X89.779 Y87 E1458.43198
G1 X135.216 Y87 E1485.69418
G1 X135.442 Y86.327 E1486.12014
G1 X135.684 Y85.388 E1486.70195
G1 X135.862 Y84.398 E1487.30548
G1 X135.904 Y84 E1487.5456
G1 X89.088 Y84 E1515.6352
G1 X89.013 Y83.035 E1516.21595
G1 X89.001 Y82.51 E1516.53103
G1 X89 Y81 E1517.43703
G1 X136 Y81 E1545.63703
G1 X136 Y78 E1547.43703
G1 X89 Y78 E1575.63703
G1 X89 Y75 E1577.43703
G1 X136 Y75 E1605.63703
G1 X136 Y72 E1607.43703
G1 X89 Y72 E1635.63703
G1 X89 Y69 E1637.43703
G1 X136 Y69 E1665.63703
G1 X136 Y66 E1667.43703
G1 X89 Y66 E1695.63703
G1 X89 Y63 E1697.43703
G1 X136 Y63 E1725.63703
G1 X135.999 Y62.482 E1725.94783
G1 X135.987 Y61.962 E1726.25991
G1 X135.906 Y60.938 E1726.87623
G1 X135.766 Y60.009 E1727.43993
G1 X135.764 Y60 E1727.44546
G1 X89.246 Y60 E1755.35626
G1 X89.316 Y59.61 E1755.594
G1 X89.558 Y58.671 E1756.17581
G1 X89.865 Y57.755 E1756.75545
G1 X90.181 Y57 E1757.24653
G1 X134.82 Y57 E1784.02993
G1 X134.469 Y56.263 E1784.51972
G1 X133.991 Y55.418 E1785.10222
G1 X133.427 Y54.578 E1785.70928
G1 X132.978 Y54 E1786.14843
G1 X92.026 Y54 E1810.71963
G1 X92.406 Y53.539 E1811.07808
G1 X93.085 Y52.828 E1811.66797
G1 X93.818 Y52.164 E1812.26139
G1 X94.58 Y51.571 E1812.84072
G1 X95.419 Y51.008 E1813.44695
G1 X95.434 Y51 E1813.45715
G1 X129.552 Y51 E1833.92795
G0 F7200 X129.066 Y50.707
G1 F1800 X128.161 Y50.247 E1834.53707
G1 X127.244 Y49.864 E1835.13333
G1 X126.328 Y49.557 E1835.71298
G1 X125.389 Y49.315 E1836.29479
G1 X124.399 Y49.137 E1836.89831
G1 X123.437 Y49.034 E1837.47881
G1 X122.463 Y48.999 E1838.06359
G1 X102.49 Y49 E1850.04739
G1 X101.959 Y49.012 E1850.36607
G1 X100.962 Y49.09 E1850.9661
G1 X100.01 Y49.233 E1851.54371
G1 X99.024 Y49.458 E1852.15052
G1 X98.091 Y49.743 E1852.73585
G1 X97.178 Y50.095 E1853.32295
G1 X96.264 Y50.53 E1853.9303
G1 X95.434 Y51 E1854.5026
G0 F600 X95.434 Y51 Z1.06
G0 F7200 X135 Y87.565
;TIME_ELAPSED:62.418245
;LAYER:-3
;TYPE:SUPPORT-INTERFACE
G1 F1800 X135 Y57.426 E1872.586
G1 X135.253 Y58.082 E1873.00785
G1 X135.541 Y59.023 E1873.59831
G1 X135.766 Y60.009 E1874.20511
G1 X135.906 Y60.938 E1874.76881
G1 X135.987 Y61.962 E1875.38513
G1 X135.999 Y62.482 E1875.69721
G1 X136 Y82.473 E1887.69181
G1 X135.965 Y83.436 E1888.26999
G1 X135.862 Y84.398 E1888.85049
G1 X135.684 Y85.388 E1889.45402
G1 X135.442 Y86.327 E1890.03582
G1 X135.14 Y87.229 E1890.60655
G0 F7200 X135 Y57.426
G1 F1800 X134.904 Y57.177 E1890.76667
G1 X134.469 Y56.263 E1891.37401
G1 X133.991 Y55.418 E1891.95651
G1 X133.427 Y54.578 E1892.56358
G1 X132.835 Y53.817 E1893.14207
G1 X132.171 Y53.084 E1893.73549
G1 X132 Y52.921 E1893.87723
G1 X132 Y92.082 E1917.37383
G1 X131.917 Y92.168 E1917.44554
G1 X131.182 Y92.834 E1918.04066
G1 X130.419 Y93.427 E1918.62046
G1 X129.58 Y93.99 E1919.2267
G1 X128.999 Y94.319 E1919.62731
G1 X129 Y50.674 E1945.81431
G1 X128.161 Y50.247 E1946.37915
G1 X127.244 Y49.864 E1946.97542
G1 X126.328 Y49.557 E1947.55506
G1 X126 Y49.473 E1947.75821
G1 X125.999 Y95.533 E1975.39421
G1 X125.977 Y95.539 E1975.4079
G1 X124.989 Y95.765 E1976.01601
G1 X124.037 Y95.908 E1976.59362
G1 X123.04 Y95.986 E1977.19364
G1 X122.999 Y95.987 E1977.21825
G1 X123 Y49.019 E2005.39905
G1 X122.463 Y48.999 E2005.72147
G1 X120 Y48.999 E2007.19927
G1 X119.999 Y95.999 E2035.39927
G1 X116.999 Y95.999 E2037.19927
G1 X117 Y48.999 E2065.39927
G1 X114 Y48.999 E2067.19927
G1 X113.999 Y95.999 E2095.39927
G1 X110.999 Y95.999 E2097.19927
G1 X111 Y48.999 E2125.39927
G1 X108 Y48.999 E2127.19927
G1 X107.999 Y95.999 E2155.39927
G1 X104.999 Y95.999 E2157.19927
G1 X105 Y48.999 E2185.39927
G1 X102.49 Y49 E2186.90527
G1 X102 Y49.011 E2187.19935
G1 X101.999 Y95.979 E2215.38015
G1 X101.562 Y95.964 E2215.6425
G1 X100.6 Y95.861 E2216.223
G1 X99.61 Y95.683 E2216.82653
G1 X98.999 Y95.525 E2217.20519
G1 X99 Y49.465 E2244.84119
G1 X98.091 Y49.743 E2245.41152
G1 X97.178 Y50.095 E2245.99862
G1 X96.264 Y50.53 E2246.60597
G1 X96 Y50.679 E2246.78785
G1 X95.999 Y94.324 E2272.97485
G1 X95.933 Y94.291 E2273.01913
G1 X95.115 Y93.797 E2273.59248
G1 X94.286 Y93.21 E2274.20195
G1 X93.539 Y92.593 E2274.78327
G1 X92.999 Y92.077 E2275.23141
G1 X93 Y52.917 E2298.72741
G1 X92.406 Y53.539 E2299.24345
G1 X91.789 Y54.286 E2299.82477
G1 X91.202 Y55.115 E2300.43424
G1 X90.708 Y55.933 E2301.00759
G1 X90.248 Y56.838 E2301.61671
G1 X90 Y57.431 E2302.00237
G1 X89.999 Y87.573 E2320.08757
G1 X89.743 Y86.908 E2320.51512
G1 X89.458 Y85.975 E2321.10045
G1 X89.233 Y84.989 E2321.70726
G1 X89.09 Y84.037 E2322.28487
G1 X89.012 Y83.034 E2322.88849
G1 X89 Y82.509 E2323.20357
G1 X88.999 Y62.525 E2335.19397
G1 X89.034 Y61.562 E2335.77215
G1 X89.137 Y60.6 E2336.35265
G1 X89.315 Y59.61 E2336.95617
G1 X89.558 Y58.671 E2337.53813
G1 X89.865 Y57.755 E2338.11778
G0 F600 X89.865 Y57.755 Z1.66
G0 F7200 X104 Y81
;TIME_ELAPSED:90.003514
;LAYER:0
M106 S255
;TYPE:WALL-OUTER
;MESH:single_mesh.stl
G1 F1800 X104 Y64 E2353.41778
G1 X121 Y64 E2368.71778
G1 X121 Y81 E2384.01778
G1 X104 Y81 E2399.31778
G0 F3600 X104 Y79.5
G0 X104.1 Y79.5
G0 X106.99 Y78.01
;TYPE:SKIN
G1 F1800 X106.99 Y66.99 E2409.23578
G1 X118.01 Y66.99 E2419.15378
G1 X118.01 Y78.01 E2429.07178
G1 X106.99 Y78.01 E2438.98978
G0 F3600 X110.6 Y76.659
G1 F1800 X108.339 Y74.398 E2441.86756
G0 F3600 X108.339 Y70.155
G1 F1800 X114.843 Y76.659 E2450.1458
G0 F3600 X116.659 Y74.232
G1 F1800 X110.766 Y68.339 E2457.64637
G0 F3600 X115.008 Y68.339
G1 F1800 X116.659 Y69.99 E2459.74775
;MESH:NONMESH
G0 F600 X116.659 Y69.99 Z1.71
G0 F3600 X104.07 Y80.93
G0 X104 Y81
;TIME_ELAPSED:95.252964
;LAYER:1
;TYPE:WALL-OUTER
;MESH:single_mesh.stl
G1 F1786.3 X104 Y64 E2469.94775
G1 X121 Y64 E2480.14775
G1 X121 Y81 E2490.34775
G1 X104 Y81 E2500.54775
G0 F5400 X104 Y79.5
G0 X104.1 Y79.5
G0 X106.99 Y78.01
;TYPE:SKIN
G1 F1786.3 X106.99 Y66.99 E2507.15975
G1 X118.01 Y66.99 E2513.77175
G1 X118.01 Y78.01 E2520.38375
G1 X106.99 Y78.01 E2526.99575
G0 F5400 X108.339 Y69.851
G1 F1786.3 X109.851 Y68.339 E2528.27872
G0 F5400 X114.093 Y68.339
G1 F1786.3 X108.339 Y74.094 E2533.16158
G0 F5400 X110.016 Y76.659
G1 F1786.3 X116.659 Y70.017 E2538.79793
G0 F5400 X116.659 Y74.259
G1 F1786.3 X114.259 Y76.659 E2540.83439
;MESH:NONMESH
G0 F600 X114.259 Y76.659 Z1.91
G0 F5400 X104.07 Y80.93
G0 X104 Y81
;TIME_ELAPSED:100.405099
;LAYER:2
;TYPE:WALL-OUTER
;MESH:single_mesh.stl
G1 F1711.2 X104 Y64 E2551.03439
G1 X121 Y64 E2561.23439
G1 X121 Y81 E2571.43439
G1 X104 Y81 E2581.63439
G0 F7200 X104 Y79.5
G0 X104.1 Y79.5
G0 X106.99 Y78.01
;TYPE:SKIN
G1 F1711.2 X106.99 Y66.99 E2588.24639
G1 X118.01 Y66.99 E2594.85839
G1 X118.01 Y78.01 E2601.47039
G1 X106.99 Y78.01 E2608.08239
G0 F7200 X110.6 Y76.659
G1 F1711.2 X108.339 Y74.398 E2610.00092
G0 F7200 X108.339 Y70.155
G1 F1711.2 X114.843 Y76.659 E2615.51974
G0 F7200 X116.659 Y74.232
G1 F1711.2 X110.766 Y68.339 E2620.52012
G0 F7200 X115.008 Y68.339
G1 F1711.2 X116.659 Y69.99 E2621.92104
;MESH:NONMESH
G0 F600 X116.659 Y69.99 Z2.11
G0 F7200 X104.07 Y80.93
G0 X104 Y81
;TIME_ELAPSED:105.715096
;LAYER:3
;TYPE:WALL-OUTER
;MESH:single_mesh.stl
G1 F1742.1 X104 Y64 E2632.12104
G1 X121 Y64 E2642.32104
G1 X121 Y81 E2652.52104
G1 X104 Y81 E2662.72104
G0 F7200 X104 Y79.5
G0 X104.1 Y79.5
G0 X106.99 Y78.01
;TYPE:SKIN
G1 F1742.1 X106.99 Y66.99 E2669.33304
G1 X118.01 Y66.99 E2675.94504
G1 X118.01 Y78.01 E2682.55704
G1 X106.99 Y78.01 E2689.16904
G0 F7200 X108.339 Y69.851
G1 F1742.1 X109.851 Y68.339 E2690.45201
G0 F7200 X114.093 Y68.339
G1 F1742.1 X108.339 Y74.094 E2695.33487
G0 F7200 X110.016 Y76.659
G1 F1742.1 X116.659 Y70.017 E2700.97122
G0 F7200 X116.659 Y74.259
G1 F1742.1 X114.259 Y76.659 E2703.00768
;MESH:NONMESH
G0 F600 X114.259 Y76.659 Z2.31
G0 F7200 X105.199 Y65.199
;TIME_ELAPSED:110.959320
;LAYER:4
;TYPE:FILL
;MESH:single_mesh.stl
G1 F2373.8 X119.799 Y79.799 E2715.3962
G1 X120.329 Y80.329
G0 F7200 X105.199 Y79.799
G1 F2373.8 X119.799 Y65.199 E2727.78471
G1 X120.329 Y64.669
G0 F7200 X104.07 Y80.93
G0 X104 Y81
;TYPE:WALL-OUTER
G1 F1186.9 X104 Y64 E2737.98471
G1 X121 Y64 E2748.18471
G1 X121 Y81 E2758.38471
G1 X104 Y81 E2768.58471
G0 F7200 X104 Y79.5
G0 X107 Y78
;MESH:NONMESH
G0 F600 X107 Y78 Z2.51
G0 F7200 X105.199 Y65.199
;TIME_ELAPSED:116.143262
;LAYER:5
;TYPE:FILL
;MESH:single_mesh.stl
G1 F2366.5 X119.799 Y79.799 E2780.97322
G1 X120.329 Y80.329
G0 F7200 X105.199 Y79.799
