;FLAVOR:BFB
;TIME:342
;MINX:2.14748e+006
;MINY:2.14748e+006
;MINZ:2.14748e+006
;MAXX:-2.14748e+006
;MAXY:-2.14748e+006
;MAXZ:-2.14748e+006
;Generated with Cura_SteamEngine 4.6.1
M190 S60
M104 S200
M109 S200
M82 ;absolute extrusion mode
G28 ;Home
G1 Z15.0 F6000 ;Move the platform down 15mm
;Prime the extruder
G92 E0
G1 F200 E3
G92 E0
G92 E0
;enable auto-retraction
M227 S16640 P16640
G92 E0
;LAYER_COUNT:49
;LAYER:-6
M107
M103
G1 X92.057 Y56.595 Z0.36 F7200
;TYPE:SUPPORT-INTERFACE
M108 S114.3
M101
G1 X92.512 Y55.855 Z0.36 F1350
G1 X93.029 Y55.135 Z0.36 F1350
G1 X93.585 Y54.472 Z0.36 F1350
G1 X94.205 Y53.833 Z0.36 F1350
G1 X94.828 Y53.276 Z0.36 F1350
G1 X95.55 Y52.722 Z0.36 F1350
G1 X96.256 Y52.256 Z0.36 F1350
G1 X97.047 Y51.814 Z0.36 F1350
G1 X97.822 Y51.453 Z0.36 F1350
G1 X98.672 Y51.131 Z0.36 F1350
G1 X99.479 Y50.89 Z0.36 F1350
G1 X100.335 Y50.7 Z0.36 F1350
G1 X101.19 Y50.575 Z0.36 F1350
G1 X102.108 Y50.508 Z0.36 F1350
G1 X102.589 Y50.5 Z0.36 F1350
G1 X122.437 Y50.5 Z0.36 F1350
G1 X123.356 Y50.533 Z0.36 F1350
G1 X124.297 Y50.639 Z0.36 F1350
G1 X125.13 Y50.795 Z0.36 F1350
G1 X125.999 Y51.026 Z0.36 F1350
G1 X126.826 Y51.311 Z0.36 F1350
G1 X127.649 Y51.664 Z0.36 F1350
G1 X128.405 Y52.057 Z0.36 F1350
G1 X129.145 Y52.512 Z0.36 F1350
G1 X129.865 Y53.029 Z0.36 F1350
G1 X130.52 Y53.578 Z0.36 F1350
G1 X131.167 Y54.205 Z0.36 F1350
G1 X131.724 Y54.828 Z0.36 F1350
G1 X132.276 Y55.547 Z0.36 F1350
G1 X132.744 Y56.256 Z0.36 F1350
G1 X133.186 Y57.047 Z0.36 F1350
G1 X133.547 Y57.822 Z0.36 F1350
G1 X133.869 Y58.672 Z0.36 F1350
G1 X134.11 Y59.479 Z0.36 F1350
G1 X134.3 Y60.335 Z0.36 F1350
G1 X134.425 Y61.19 Z0.36 F1350
G1 X134.492 Y62.108 Z0.36 F1350
G1 X134.5 Y62.556 Z0.36 F1350
G1 X134.5 Y82.444 Z0.36 F1350
G1 X134.465 Y83.384 Z0.36 F1350
G1 X134.361 Y84.297 Z0.36 F1350
G1 X134.204 Y85.135 Z0.36 F1350
G1 X133.968 Y86.017 Z0.36 F1350
G1 X133.731 Y86.717 Z0.36 F1350
G1 X133.686 Y86.832 Z0.36 F1350
G1 X133.336 Y87.649 Z0.36 F1350
G1 X132.95 Y88.392 Z0.36 F1350
G1 X132.488 Y89.145 Z0.36 F1350
G1 X131.971 Y89.865 Z0.36 F1350
G1 X131.422 Y90.52 Z0.36 F1350
G1 X130.795 Y91.167 Z0.36 F1350
G1 X130.172 Y91.724 Z0.36 F1350
G1 X129.45 Y92.278 Z0.36 F1350
G1 X128.744 Y92.744 Z0.36 F1350
G1 X127.953 Y93.186 Z0.36 F1350
G1 X127.178 Y93.547 Z0.36 F1350
G1 X126.328 Y93.869 Z0.36 F1350
G1 X125.521 Y94.11 Z0.36 F1350
G1 X124.665 Y94.3 Z0.36 F1350
G1 X123.81 Y94.425 Z0.36 F1350
G1 X122.892 Y94.492 Z0.36 F1350
G1 X122.411 Y94.5 Z0.36 F1350
G1 X102.563 Y94.5 Z0.36 F1350
G1 X101.616 Y94.465 Z0.36 F1350
G1 X100.703 Y94.361 Z0.36 F1350
G1 X99.865 Y94.204 Z0.36 F1350
G1 X99.001 Y93.974 Z0.36 F1350
G1 X98.174 Y93.689 Z0.36 F1350
G1 X97.351 Y93.336 Z0.36 F1350
G1 X96.595 Y92.943 Z0.36 F1350
G1 X95.855 Y92.488 Z0.36 F1350
G1 X95.135 Y91.971 Z0.36 F1350
G1 X94.475 Y91.418 Z0.36 F1350
G1 X93.833 Y90.795 Z0.36 F1350
G1 X93.276 Y90.172 Z0.36 F1350
G1 X92.722 Y89.45 Z0.36 F1350
G1 X92.256 Y88.744 Z0.36 F1350
G1 X91.814 Y87.952 Z0.36 F1350
G1 X91.455 Y87.184 Z0.36 F1350
G1 X91.131 Y86.328 Z0.36 F1350
G1 X90.89 Y85.521 Z0.36 F1350
G1 X90.7 Y84.665 Z0.36 F1350
G1 X90.574 Y83.798 Z0.36 F1350
G1 X90.508 Y82.887 Z0.36 F1350
G1 X90.5 Y82.444 Z0.36 F1350
G1 X90.5 Y62.554 Z0.36 F1350
G1 X90.535 Y61.616 Z0.36 F1350
G1 X90.639 Y60.703 Z0.36 F1350
G1 X90.8 Y59.85 Z0.36 F1350
G1 X91.026 Y59.001 Z0.36 F1350
G1 X91.311 Y58.174 Z0.36 F1350
G1 X91.664 Y57.351 Z0.36 F1350
G1 X92.057 Y56.595 Z0.36 F1350
M103
G1 X92.057 Y56.595 Z0.36 F7200
G1 X96 Y52.424 Z0.36 F7200
G1 X96 Y52.424 Z0.36 F7200
M101
G1 X96 Y92.577 Z0.36 F1350
M103
G1 X96 Y92.577 Z0.36 F7200
G1 X108 Y94.5 Z0.36 F7200
G1 X108 Y94.5 Z0.36 F7200
M101
G1 X108 Y50.5 Z0.36 F1350
M103
G1 X108 Y50.5 Z0.36 F7200
G1 X120 Y50.5 Z0.36 F7200
G1 X120 Y50.5 Z0.36 F7200
M101
G1 X120 Y94.5 Z0.36 F1350
M103
G1 X120 Y94.5 Z0.36 F7200
G1 X132 Y89.825 Z0.36 F7200
G1 X132 Y89.825 Z0.36 F7200
M101
G1 X132 Y55.188 Z0.36 F1350
M103
G1 X132 Y55.188 Z0.66 F600
G1 X132 Y55.188 Z0.66 F7200
G1 X134.499 Y62.555 Z0.66 F7200
G1 X134.499 Y62.555 Z0.66 F7200
;TIME_ELAPSED:15.707407
;LAYER:-5
M140 S60
;TYPE:SUPPORT
M108 S95.2
M101
G1 X134.491 Y62.108 Z0.66 F1350
G1 X134.423 Y61.19 Z0.66 F1350
G1 X134.299 Y60.334 Z0.66 F1350
G1 X134.109 Y59.478 Z0.66 F1350
G1 X133.868 Y58.672 Z0.66 F1350
G1 X133.546 Y57.822 Z0.66 F1350
G1 X133.185 Y57.047 Z0.66 F1350
G1 X132.743 Y56.256 Z0.66 F1350
G1 X132.274 Y55.546 Z0.66 F1350
G1 X131.723 Y54.828 Z0.66 F1350
G1 X131.166 Y54.204 Z0.66 F1350
G1 X130.519 Y53.577 Z0.66 F1350
G1 X129.864 Y53.028 Z0.66 F1350
G1 X129.143 Y52.511 Z0.66 F1350
G1 X128.404 Y52.056 Z0.66 F1350
G1 X127.648 Y51.664 Z0.66 F1350
G1 X126.825 Y51.31 Z0.66 F1350
G1 X125.997 Y51.026 Z0.66 F1350
G1 X125.128 Y50.795 Z0.66 F1350
G1 X124.296 Y50.638 Z0.66 F1350
G1 X123.355 Y50.533 Z0.66 F1350
G1 X122.436 Y50.499 Z0.66 F1350
G1 X120.645 Y50.5 Z0.66 F1350
G1 X134.499 Y64.354 Z0.66 F1350
G1 X134.499 Y73.122 Z0.66 F1350
G1 X111.877 Y50.5 Z0.66 F1350
G1 X103.108 Y50.5 Z0.66 F1350
G1 X134.499 Y81.89 Z0.66 F1350
G1 X134.499 Y82.443 Z0.66 F1350
G1 X134.464 Y83.384 Z0.66 F1350
G1 X134.36 Y84.297 Z0.66 F1350
G1 X134.203 Y85.134 Z0.66 F1350
G1 X133.967 Y86.016 Z0.66 F1350
G1 X133.73 Y86.717 Z0.66 F1350
G1 X133.684 Y86.832 Z0.66 F1350
G1 X133.334 Y87.648 Z0.66 F1350
G1 X132.949 Y88.391 Z0.66 F1350
G1 X132.677 Y88.836 Z0.66 F1350
G1 X96.16 Y52.319 Z0.66 F1350
G1 X95.549 Y52.722 Z0.66 F1350
G1 X94.827 Y53.276 Z0.66 F1350
G1 X94.204 Y53.832 Z0.66 F1350
G1 X93.584 Y54.471 Z0.66 F1350
G1 X93.028 Y55.134 Z0.66 F1350
G1 X92.511 Y55.855 Z0.66 F1350
G1 X92.056 Y56.594 Z0.66 F1350
G1 X91.922 Y56.849 Z0.66 F1350
G1 X128.148 Y93.075 Z0.66 F1350
G1 X127.951 Y93.186 Z0.66 F1350
G1 X127.177 Y93.547 Z0.66 F1350
G1 X126.326 Y93.869 Z0.66 F1350
G1 X125.519 Y94.11 Z0.66 F1350
G1 X124.664 Y94.299 Z0.66 F1350
G1 X123.809 Y94.424 Z0.66 F1350
G1 X122.89 Y94.492 Z0.66 F1350
G1 X122.41 Y94.499 Z0.66 F1350
G1 X120.804 Y94.499 Z0.66 F1350
G1 X90.499 Y64.194 Z0.66 F1350
G1 X90.499 Y72.962 Z0.66 F1350
G1 X112.036 Y94.499 Z0.66 F1350
G1 X103.267 Y94.499 Z0.66 F1350
G1 X90.499 Y81.73 Z0.66 F1350
M103
G1 X90.499 Y82.443 Z0.66 F7200
M101
G1 X90.506 Y82.887 Z0.66 F1350
G1 X90.573 Y83.797 Z0.66 F1350
G1 X90.699 Y84.664 Z0.66 F1350
G1 X90.889 Y85.521 Z0.66 F1350
G1 X91.13 Y86.327 Z0.66 F1350
G1 X91.454 Y87.183 Z0.66 F1350
G1 X91.812 Y87.952 Z0.66 F1350
G1 X92.255 Y88.744 Z0.66 F1350
G1 X92.721 Y89.45 Z0.66 F1350
G1 X93.275 Y90.172 Z0.66 F1350
G1 X93.832 Y90.794 Z0.66 F1350
G1 X94.474 Y91.418 Z0.66 F1350
G1 X95.134 Y91.97 Z0.66 F1350
G1 X95.853 Y92.488 Z0.66 F1350
G1 X96.594 Y92.942 Z0.66 F1350
G1 X97.35 Y93.335 Z0.66 F1350
G1 X98.173 Y93.688 Z0.66 F1350
G1 X98.999 Y93.973 Z0.66 F1350
G1 X99.863 Y94.204 Z0.66 F1350
G1 X100.702 Y94.361 Z0.66 F1350
G1 X101.615 Y94.465 Z0.66 F1350
G1 X102.562 Y94.499 Z0.66 F1350
G1 X103.267 Y94.499 Z0.66 F1350
M103
G1 X103.267 Y94.499 Z0.86 F600
G1 X103.267 Y94.499 Z0.86 F7200
G1 X94.287 Y93.211 Z0.86 F7200
G1 X94.287 Y93.211 Z0.86 F7200
;TIME_ELAPSED:33.105272
;LAYER:-4
;TYPE:SUPPORT-INTERFACE
M108 S42.3
M101
G1 X95.116 Y93.798 Z0.86 F1800.2
G1 X95.934 Y94.292 Z0.86 F1800.2
G1 X96.839 Y94.752 Z0.86 F1800.2
G1 X97.756 Y95.135 Z0.86 F1800.2
G1 X98.672 Y95.442 Z0.86 F1800.2
G1 X99.611 Y95.684 Z0.86 F1800.2
G1 X100.601 Y95.862 Z0.86 F1800.2
G1 X101.563 Y95.965 Z0.86 F1800.2
G1 X102.537 Y96 Z0.86 F1800.2
G1 X122.51 Y95.998 Z0.86 F1800.2
G1 X123.041 Y95.986 Z0.86 F1800.2
G1 X124.038 Y95.908 Z0.86 F1800.2
G1 X124.99 Y95.765 Z0.86 F1800.2
G1 X125.978 Y95.539 Z0.86 F1800.2
G1 X126.909 Y95.255 Z0.86 F1800.2
G1 X127.822 Y94.903 Z0.86 F1800.2
G1 X128.736 Y94.468 Z0.86 F1800.2
G1 X129.581 Y93.99 Z0.86 F1800.2
G1 X130.42 Y93.427 Z0.86 F1800.2
G1 X130.968 Y93 Z0.86 F1800.2
G1 X94.031 Y93 Z0.86 F1800.2
M103
G1 X94.031 Y93 Z0.86 F7200
G1 X130.968 Y93 Z0.86 F7200
G1 X130.968 Y93 Z0.86 F7200
M101
G1 X131.182 Y92.834 Z0.86 F1800.2
G1 X131.917 Y92.168 Z0.86 F1800.2
G1 X132.594 Y91.459 Z0.86 F1800.2
G1 X133.215 Y90.707 Z0.86 F1800.2
G1 X133.715 Y90 Z0.86 F1800.2
G1 X91.29 Y90 Z0.86 F1800.2
G1 X91.009 Y89.581 Z0.86 F1800.2
G1 X90.531 Y88.736 Z0.86 F1800.2
G1 X90.095 Y87.821 Z0.86 F1800.2
G1 X89.779 Y87 Z0.86 F1800.2
G1 X135.216 Y87 Z0.86 F1800.2
G1 X135.442 Y86.327 Z0.86 F1800.2
G1 X135.684 Y85.388 Z0.86 F1800.2
G1 X135.862 Y84.398 Z0.86 F1800.2
G1 X135.904 Y84 Z0.86 F1800.2
G1 X89.088 Y84 Z0.86 F1800.2
G1 X89.013 Y83.035 Z0.86 F1800.2
G1 X89.001 Y82.51 Z0.86 F1800.2
G1 X89 Y81 Z0.86 F1800.2
G1 X136 Y81 Z0.86 F1800.2
G1 X136 Y78 Z0.86 F1800.2
G1 X89 Y78 Z0.86 F1800.2
G1 X89 Y75 Z0.86 F1800.2
G1 X136 Y75 Z0.86 F1800.2
G1 X136 Y72 Z0.86 F1800.2
G1 X89 Y72 Z0.86 F1800.2
G1 X89 Y69 Z0.86 F1800.2
G1 X136 Y69 Z0.86 F1800.2
G1 X136 Y66 Z0.86 F1800.2
G1 X89 Y66 Z0.86 F1800.2
G1 X89 Y63 Z0.86 F1800.2
G1 X136 Y63 Z0.86 F1800.2
G1 X135.999 Y62.482 Z0.86 F1800.2
G1 X135.987 Y61.962 Z0.86 F1800.2
G1 X135.906 Y60.938 Z0.86 F1800.2
G1 X135.766 Y60.009 Z0.86 F1800.2
G1 X135.764 Y60 Z0.86 F1800.2
G1 X89.246 Y60 Z0.86 F1800.2
G1 X89.316 Y59.61 Z0.86 F1800.2
G1 X89.558 Y58.671 Z0.86 F1800.2
G1 X89.865 Y57.755 Z0.86 F1800.2
G1 X90.181 Y57 Z0.86 F1800.2
G1 X134.82 Y57 Z0.86 F1800.2
G1 X134.469 Y56.263 Z0.86 F1800.2
G1 X133.991 Y55.418 Z0.86 F1800.2
G1 X133.427 Y54.578 Z0.86 F1800.2
G1 X132.978 Y54 Z0.86 F1800.2
G1 X92.026 Y54 Z0.86 F1800.2
G1 X92.406 Y53.539 Z0.86 F1800.2
G1 X93.085 Y52.828 Z0.86 F1800.2
G1 X93.818 Y52.164 Z0.86 F1800.2
G1 X94.58 Y51.571 Z0.86 F1800.2
G1 X95.419 Y51.008 Z0.86 F1800.2
G1 X95.434 Y51 Z0.86 F1800.2
G1 X129.552 Y51 Z0.86 F1800.2
M103
G1 X129.066 Y50.707 Z0.86 F7200
M101
G1 X128.161 Y50.247 Z0.86 F1800.2
G1 X127.244 Y49.864 Z0.86 F1800.2
G1 X126.328 Y49.557 Z0.86 F1800.2
G1 X125.389 Y49.315 Z0.86 F1800.2
G1 X124.399 Y49.137 Z0.86 F1800.2
G1 X123.437 Y49.034 Z0.86 F1800.2
G1 X122.463 Y48.999 Z0.86 F1800.2
G1 X102.49 Y49 Z0.86 F1800.2
G1 X101.959 Y49.012 Z0.86 F1800.2
G1 X100.962 Y49.09 Z0.86 F1800.2
G1 X100.01 Y49.233 Z0.86 F1800.2
G1 X99.024 Y49.458 Z0.86 F1800.2
G1 X98.091 Y49.743 Z0.86 F1800.2
G1 X97.178 Y50.095 Z0.86 F1800.2
G1 X96.264 Y50.53 Z0.86 F1800.2
G1 X95.434 Y51 Z0.86 F1800.2
M103
G1 X95.434 Y51 Z1.06 F600
G1 X95.434 Y51 Z1.06 F7200
G1 X135 Y87.565 Z1.06 F7200
G1 X135 Y87.565 Z1.06 F7200
;TIME_ELAPSED:60.227584
;LAYER:-3
;TYPE:SUPPORT-INTERFACE
M101
G1 X135 Y57.426 Z1.06 F1800.2
G1 X135.253 Y58.082 Z1.06 F1800.2
G1 X135.541 Y59.023 Z1.06 F1800.2
G1 X135.766 Y60.009 Z1.06 F1800.2
G1 X135.906 Y60.938 Z1.06 F1800.2
G1 X135.987 Y61.962 Z1.06 F1800.2
G1 X135.999 Y62.482 Z1.06 F1800.2
G1 X136 Y82.473 Z1.06 F1800.2
G1 X135.965 Y83.436 Z1.06 F1800.2
G1 X135.862 Y84.398 Z1.06 F1800.2
G1 X135.684 Y85.388 Z1.06 F1800.2
G1 X135.442 Y86.327 Z1.06 F1800.2
G1 X135.14 Y87.229 Z1.06 F1800.2
M103
G1 X135.14 Y87.229 Z1.06 F7200
G1 X135 Y57.426 Z1.06 F7200
G1 X135 Y57.426 Z1.06 F7200
M101
G1 X134.904 Y57.177 Z1.06 F1800.2
G1 X134.469 Y56.263 Z1.06 F1800.2
G1 X133.991 Y55.418 Z1.06 F1800.2
G1 X133.427 Y54.578 Z1.06 F1800.2
G1 X132.835 Y53.817 Z1.06 F1800.2
G1 X132.171 Y53.084 Z1.06 F1800.2
G1 X132 Y52.921 Z1.06 F1800.2
G1 X132 Y92.082 Z1.06 F1800.2
G1 X131.917 Y92.168 Z1.06 F1800.2
G1 X131.182 Y92.834 Z1.06 F1800.2
G1 X130.419 Y93.427 Z1.06 F1800.2
G1 X129.58 Y93.99 Z1.06 F1800.2
G1 X128.999 Y94.319 Z1.06 F1800.2
G1 X129 Y50.674 Z1.06 F1800.2
G1 X128.161 Y50.247 Z1.06 F1800.2
G1 X127.244 Y49.864 Z1.06 F1800.2
G1 X126.328 Y49.557 Z1.06 F1800.2
G1 X126 Y49.473 Z1.06 F1800.2
G1 X125.999 Y95.533 Z1.06 F1800.2
G1 X125.977 Y95.539 Z1.06 F1800.2
G1 X124.989 Y95.765 Z1.06 F1800.2
G1 X124.037 Y95.908 Z1.06 F1800.2
G1 X123.04 Y95.986 Z1.06 F1800.2
G1 X122.999 Y95.987 Z1.06 F1800.2
G1 X123 Y49.019 Z1.06 F1800.2
G1 X122.463 Y48.999 Z1.06 F1800.2
G1 X120 Y48.999 Z1.06 F1800.2
G1 X119.999 Y95.999 Z1.06 F1800.2
G1 X116.999 Y95.999 Z1.06 F1800.2
G1 X117 Y48.999 Z1.06 F1800.2
G1 X114 Y48.999 Z1.06 F1800.2
G1 X113.999 Y95.999 Z1.06 F1800.2
G1 X110.999 Y95.999 Z1.06 F1800.2
G1 X111 Y48.999 Z1.06 F1800.2
G1 X108 Y48.999 Z1.06 F1800.2
G1 X107.999 Y95.999 Z1.06 F1800.2
G1 X104.999 Y95.999 Z1.06 F1800.2
G1 X105 Y48.999 Z1.06 F1800.2
G1 X102.49 Y49 Z1.06 F1800.2
G1 X102 Y49.011 Z1.06 F1800.2
G1 X101.999 Y95.979 Z1.06 F1800.2
G1 X101.562 Y95.964 Z1.06 F1800.2
G1 X100.6 Y95.861 Z1.06 F1800.2
G1 X99.61 Y95.683 Z1.06 F1800.2
G1 X98.999 Y95.525 Z1.06 F1800.2
G1 X99 Y49.465 Z1.06 F1800.2
G1 X98.091 Y49.743 Z1.06 F1800.2
G1 X97.178 Y50.095 Z1.06 F1800.2
G1 X96.264 Y50.53 Z1.06 F1800.2
G1 X96 Y50.679 Z1.06 F1800.2
G1 X95.999 Y94.324 Z1.06 F1800.2
G1 X95.933 Y94.291 Z1.06 F1800.2
G1 X95.115 Y93.797 Z1.06 F1800.2
G1 X94.286 Y93.21 Z1.06 F1800.2
G1 X93.539 Y92.593 Z1.06 F1800.2
G1 X92.999 Y92.077 Z1.06 F1800.2
G1 X93 Y52.917 Z1.06 F1800.2
G1 X92.406 Y53.539 Z1.06 F1800.2
G1 X91.789 Y54.286 Z1.06 F1800.2
G1 X91.202 Y55.115 Z1.06 F1800.2
G1 X90.708 Y55.933 Z1.06 F1800.2
G1 X90.248 Y56.838 Z1.06 F1800.2
G1 X90 Y57.431 Z1.06 F1800.2
G1 X89.999 Y87.573 Z1.06 F1800.2
G1 X89.743 Y86.908 Z1.06 F1800.2
G1 X89.458 Y85.975 Z1.06 F1800.2
G1 X89.233 Y84.989 Z1.06 F1800.2
G1 X89.09 Y84.037 Z1.06 F1800.2
G1 X89.012 Y83.034 Z1.06 F1800.2
G1 X89 Y82.509 Z1.06 F1800.2
G1 X88.999 Y62.525 Z1.06 F1800.2
G1 X89.034 Y61.562 Z1.06 F1800.2
G1 X89.137 Y60.6 Z1.06 F1800.2
G1 X89.315 Y59.61 Z1.06 F1800.2
G1 X89.558 Y58.671 Z1.06 F1800.2
G1 X89.865 Y57.755 Z1.06 F1800.2
M103
G1 X89.865 Y57.755 Z1.66 F600
G1 X89.865 Y57.755 Z1.66 F7200
G1 X104 Y81 Z1.66 F7200
G1 X104 Y81 Z1.66 F7200
;TIME_ELAPSED:87.812853
;LAYER:0
M106 S255
;TYPE:WALL-OUTER
;MESH:single_mesh.stl
M108 S63.5
M101
G1 X104 Y64 Z1.66 F1799.9
G1 X121 Y64 Z1.66 F1799.9
G1 X121 Y81 Z1.66 F1799.9
G1 X104 Y81 Z1.66 F1799.9
M103
G1 X104 Y79.5 Z1.66 F3600
G1 X104.1 Y79.5 Z1.66 F3600
G1 X106.99 Y78.01 Z1.66 F3600
G1 X106.99 Y78.01 Z1.66 F3600
;TYPE:SKIN
M101
G1 X106.99 Y66.99 Z1.66 F1799.9
G1 X118.01 Y66.99 Z1.66 F1799.9
G1 X118.01 Y78.01 Z1.66 F1799.9
G1 X106.99 Y78.01 Z1.66 F1799.9
M103
G1 X106.99 Y78.01 Z1.66 F3600
G1 X110.6 Y76.659 Z1.66 F3600
G1 X110.6 Y76.659 Z1.66 F3600
M101
G1 X108.339 Y74.398 Z1.66 F1799.9
M103
G1 X108.339 Y74.398 Z1.66 F3600
G1 X108.339 Y70.155 Z1.66 F3600
G1 X108.339 Y70.155 Z1.66 F3600
M101
G1 X114.843 Y76.659 Z1.66 F1799.9
M103
G1 X114.843 Y76.659 Z1.66 F3600
G1 X116.659 Y74.232 Z1.66 F3600
G1 X116.659 Y74.232 Z1.66 F3600
M101
G1 X110.766 Y68.339 Z1.66 F1799.9
M103
G1 X110.766 Y68.339 Z1.66 F3600
G1 X115.008 Y68.339 Z1.66 F3600
G1 X115.008 Y68.339 Z1.66 F3600
M101
G1 X116.659 Y69.99 Z1.66 F1799.9
;MESH:NONMESH
M103
G1 X116.659 Y69.99 Z1.71 F600
G1 X116.659 Y69.99 Z1.71 F3600
G1 X104.07 Y80.93 Z1.71 F3600
G1 X104 Y81 Z1.71 F3600
;TIME_ELAPSED:93.062303
;LAYER:1
;TYPE:WALL-OUTER
;MESH:single_mesh.stl
M108 S42
M101
G1 X104 Y64 Z1.71 F1786.3
G1 X121 Y64 Z1.71 F1786.3
G1 X121 Y81 Z1.71 F1786.3
G1 X104 Y81 Z1.71 F1786.3
M103
G1 X104 Y79.5 Z1.71 F5400
G1 X104.1 Y79.5 Z1.71 F5400
G1 X106.99 Y78.01 Z1.71 F5400
G1 X106.99 Y78.01 Z1.71 F5400
;TYPE:SKIN
M101
G1 X106.99 Y66.99 Z1.71 F1786.3
G1 X118.01 Y66.99 Z1.71 F1786.3
G1 X118.01 Y78.01 Z1.71 F1786.3
G1 X106.99 Y78.01 Z1.71 F1786.3
M103
