;FLAVOR:Marlin
;TIME:345
;Filament used: 0.896011m
;Layer height: 0.2
;MINX:88.999
;MINY:48.999
;MINZ:0.36
;MAXX:136
;MAXY:96
;MAXZ:11.11
;Generated with Cura_SteamEngine 4.6.1
M140 S60
M105
M190 S60
M104 S200
M105
M109 S200
M82 ;absolute extrusion mode
G28 ;Home
G1 Z15.0 F6000 ;Move the platform down 15mm
;Prime the extruder
G92 E0
G1 F200 E3
G92 E0
G92 E0
G92 E0
G1 F1500 E-6.5

;LAYER:-6
M107
G0 F7200 X92.057 Y56.595 Z0.36
;TYPE:SUPPORT-INTERFACE
G1 F1500 E0
G1 F1350 X92.512 Y55.855 E0.29413
G1 X93.029 Y55.135 E0.59425
G1 X93.585 Y54.472 E0.88723
G1 X94.205 Y53.833 E1.18869
G1 X94.828 Y53.276 E1.47165
G1 X95.55 Y52.722 E1.77978
G1 X96.256 Y52.256 E2.06621
G1 X97.047 Y51.814 E2.37301
G1 X97.822 Y51.453 E2.66249
G1 X98.672 Y51.131 E2.97025
G1 X99.479 Y50.89 E3.25541
G1 X100.335 Y50.7 E3.5523
G1 X101.19 Y50.575 E3.84487
G1 X102.108 Y50.508 E4.15652
G1 X102.589 Y50.5 E4.31941
G1 X122.437 Y50.5 E11.03974
G1 X123.356 Y50.533 E11.35111
G1 X124.297 Y50.639 E11.67174
G1 X125.13 Y50.795 E11.95868
G1 X125.999 Y51.026 E12.26314
G1 X126.826 Y51.311 E12.55931
G1 X127.649 Y51.664 E12.86252
G1 X128.405 Y52.057 E13.15102
G1 X129.145 Y52.512 E13.44515
G1 X129.865 Y53.029 E13.74527
G1 X130.52 Y53.578 E14.03465
G1 X131.167 Y54.205 E14.3397
G1 X131.724 Y54.828 E14.62266
G1 X132.276 Y55.547 E14.92958
G1 X132.744 Y56.256 E15.21722
G1 X133.186 Y57.047 E15.52402
G1 X133.547 Y57.822 E15.8135
G1 X133.869 Y58.672 E16.12126
G1 X134.11 Y59.479 E16.40643
G1 X134.3 Y60.335 E16.70332
G1 X134.425 Y61.19 E16.99589
G1 X134.492 Y62.108 E17.30754
G1 X134.5 Y62.556 E17.45925
G1 X134.5 Y82.444 E24.19313
G1 X134.465 Y83.384 E24.51163
G1 X134.361 Y84.297 E24.82276
G1 X134.204 Y85.135 E25.11143
G1 X133.968 Y86.017 E25.42057
G1 X133.731 Y86.717 E25.6708
G1 X133.686 Y86.832 E25.71262
G1 X133.336 Y87.649 E26.01356
G1 X132.95 Y88.392 E26.29706
G1 X132.488 Y89.145 E26.59618
G1 X131.971 Y89.865 E26.8963
G1 X131.422 Y90.52 E27.18568
G1 X130.795 Y91.167 E27.49073
G1 X130.172 Y91.724 E27.77369
G1 X129.45 Y92.278 E28.08183
G1 X128.744 Y92.744 E28.36825
G1 X127.953 Y93.186 E28.67505
G1 X127.178 Y93.547 E28.96453
G1 X126.328 Y93.869 E29.27229
G1 X125.521 Y94.11 E29.55746
G1 X124.665 Y94.3 E29.85434
G1 X123.81 Y94.425 E30.14691
G1 X122.892 Y94.492 E30.45857
G1 X122.411 Y94.5 E30.62145
G1 X102.563 Y94.5 E37.34179
G1 X101.616 Y94.465 E37.66265
G1 X100.703 Y94.361 E37.97378
G1 X99.865 Y94.204 E38.26246
G1 X99.001 Y93.974 E38.56519
G1 X98.174 Y93.689 E38.86136
G1 X97.351 Y93.336 E39.16457
G1 X96.595 Y92.943 E39.45307
G1 X95.855 Y92.488 E39.7472
G1 X95.135 Y91.971 E40.04732
G1 X94.475 Y91.418 E40.33886
G1 X93.833 Y90.795 E40.64176
G1 X93.276 Y90.172 E40.92472
G1 X92.722 Y89.45 E41.23286
G1 X92.256 Y88.744 E41.51928
G1 X91.814 Y87.952 E41.82637
G1 X91.455 Y87.184 E42.11342
G1 X91.131 Y86.328 E42.42332
G1 X90.89 Y85.521 E42.70849
G1 X90.7 Y84.665 E43.00537
G1 X90.574 Y83.798 E43.30201
G1 X90.508 Y82.887 E43.61128
G1 X90.5 Y82.444 E43.7613
G1 X90.5 Y62.554 E50.49585
G1 X90.535 Y61.616 E50.81367
G1 X90.639 Y60.703 E51.1248
G1 X90.8 Y59.85 E51.41872
G1 X91.026 Y59.001 E51.71619
G1 X91.311 Y58.174 E52.01237
G1 X91.664 Y57.351 E52.31558
G1 X92.057 Y56.595 E52.60407
G0 F7200 X96 Y52.424
G1 F1350 X96 Y92.577 E66.19948
G0 F7200 X108 Y94.5
G1 F1350 X108 Y50.5 E81.09744
G0 F7200 X120 Y50.5
G1 F1350 X120 Y94.5 E95.9954
G0 F7200 X132 Y89.825
G1 F1350 X132 Y55.188 E107.72314
G0 F600 X132 Y55.188 Z0.66
G0 F7200 X134.499 Y62.555
;TIME_ELAPSED:18.025223
;LAYER:-5
M140 S60
;TYPE:SUPPORT
G1 F1350 X134.491 Y62.108 E107.84929
G1 X134.423 Y61.19 E108.10902
G1 X134.299 Y60.334 E108.35307
G1 X134.109 Y59.478 E108.60047
G1 X133.868 Y58.672 E108.83784
G1 X133.546 Y57.822 E109.09431
G1 X133.185 Y57.047 E109.33554
G1 X132.743 Y56.256 E109.59121
G1 X132.274 Y55.546 E109.8313
G1 X131.723 Y54.828 E110.08667
G1 X131.166 Y54.204 E110.32268
G1 X130.519 Y53.577 E110.57689
G1 X129.864 Y53.028 E110.81804
G1 X129.143 Y52.511 E111.06837
G1 X128.404 Y52.056 E111.31324
G1 X127.648 Y51.664 E111.55352
G1 X126.825 Y51.31 E111.80631
G1 X125.997 Y51.026 E112.0533
G1 X125.128 Y50.795 E112.30701
G1 X124.296 Y50.638 E112.54591
G1 X123.355 Y50.533 E112.81307
G1 X122.436 Y50.499 E113.07255
G1 X120.645 Y50.5 E113.57789
G1 X134.499 Y64.354 E119.10608
G1 X134.499 Y73.122 E121.58005
G1 X111.877 Y50.5 E130.60695
G1 X103.108 Y50.5 E133.0812
G1 X134.499 Y81.89 E145.60702
G1 X134.499 Y82.443 E145.76305
G1 X134.464 Y83.384 E146.02875
G1 X134.36 Y84.297 E146.28802
G1 X134.203 Y85.134 E146.52831
G1 X133.967 Y86.016 E146.78593
G1 X133.73 Y86.717 E146.99472
G1 X133.684 Y86.832 E147.02967
G1 X133.334 Y87.648 E147.28019
G1 X132.949 Y88.391 E147.51631
G1 X132.677 Y88.836 E147.66347
G1 X96.16 Y52.319 E162.23493
G1 X95.549 Y52.722 E162.44145
G1 X94.827 Y53.276 E162.69823
G1 X94.204 Y53.832 E162.93384
G1 X93.584 Y54.471 E163.18506
G1 X93.028 Y55.134 E163.4292
G1 X92.511 Y55.855 E163.67953
G1 X92.056 Y56.594 E163.9244
G1 X91.922 Y56.849 E164.00568
G1 X128.148 Y93.075 E178.46102
G1 X127.951 Y93.186 E178.52482
G1 X127.177 Y93.547 E178.7658
G1 X126.326 Y93.869 E179.02253
G1 X125.519 Y94.11 E179.26017
G1 X124.664 Y94.299 E179.50724
G1 X123.809 Y94.424 E179.75105
G1 X122.89 Y94.492 E180.01106
G1 X122.41 Y94.499 E180.14651
G1 X120.804 Y94.499 E180.59966
G1 X90.499 Y64.194 E192.69233
G1 X90.499 Y72.962 E195.16629
G1 X112.036 Y94.499 E203.76025
G1 X103.267 Y94.499 E206.23449
G1 X90.499 Y81.73 E211.32953
G0 F7200 X90.499 Y82.443
G1 F1350 X90.506 Y82.887 E211.45483
G1 X90.573 Y83.797 E211.71229
G1 X90.699 Y84.664 E211.95949
G1 X90.889 Y85.521 E212.20717
G1 X91.13 Y86.327 E212.44454
G1 X91.454 Y87.183 E212.70279
G1 X91.812 Y87.952 E212.94213
G1 X92.255 Y88.744 E213.19818
G1 X92.721 Y89.45 E213.43687
G1 X93.275 Y90.172 E213.69365
G1 X93.832 Y90.794 E213.92923
G1 X94.474 Y91.418 E214.18184
G1 X95.134 Y91.97 E214.42462
G1 X95.853 Y92.488 E214.67465
G1 X96.594 Y92.942 E214.91986
G1 X97.35 Y93.335 E215.16027
G1 X98.173 Y93.688 E215.41294
G1 X98.999 Y93.973 E215.65949
G1 X99.863 Y94.204 E215.91184
G1 X100.702 Y94.361 E216.15268
G1 X101.615 Y94.465 E216.41195
G1 X102.562 Y94.499 E216.67933
G1 X103.267 Y94.499 E216.87825
G0 F600 X103.267 Y94.499 Z0.86
G0 F7200 X94.287 Y93.211
;TIME_ELAPSED:35.423088
;LAYER:-4
;TYPE:SUPPORT-INTERFACE
G1 F1800 X95.116 Y93.798 E216.97379
G1 X95.934 Y94.292 E217.06366
G1 X96.839 Y94.752 E217.15915
G1 X97.756 Y95.135 E217.25261
G1 X98.672 Y95.442 E217.34348
G1 X99.611 Y95.684 E217.43468
G1 X100.601 Y95.862 E217.52928
G1 X101.563 Y95.965 E217.62028
G1 X102.537 Y96 E217.71195
G1 X122.51 Y95.998 E219.59046
G1 X123.041 Y95.986 E219.64042
G1 X124.038 Y95.908 E219.73447
G1 X124.99 Y95.765 E219.82502
G1 X125.978 Y95.539 E219.92034
G1 X126.909 Y95.255 E220.01189
G1 X127.822 Y94.903 E220.10392
G1 X128.736 Y94.468 E220.19912
G1 X129.581 Y93.99 E220.29043
G1 X130.42 Y93.427 E220.38546
G1 X130.968 Y93 E220.4508
G1 X94.031 Y93 E223.92483
G0 F7200 X130.968 Y93
G1 F1800 X131.182 Y92.834 E223.9503
G1 X131.917 Y92.168 E224.04359
G1 X132.594 Y91.459 E224.13579
G1 X133.215 Y90.707 E224.22752
G1 X133.715 Y90 E224.30896
G1 X91.29 Y90 E228.29915
G1 X91.009 Y89.581 E228.3466
G1 X90.531 Y88.736 E228.43791
G1 X90.095 Y87.821 E228.53324
G1 X89.779 Y87 E228.61598
G1 X135.216 Y87 E232.88945
G1 X135.442 Y86.327 E232.95622
G1 X135.684 Y85.388 E233.04743
G1 X135.862 Y84.398 E233.14203
G1 X135.904 Y84 E233.17967
G1 X89.088 Y84 E237.58285
G1 X89.013 Y83.035 E237.67388
G1 X89.001 Y82.51 E237.72327
G1 X89 Y81 E237.86529
G1 X136 Y81 E242.28577
G1 X136 Y78 E242.56793
G1 X89 Y78 E246.98841
G1 X89 Y75 E247.27057
G1 X136 Y75 E251.69105
G1 X136 Y72 E251.97321
G1 X89 Y72 E256.39369
G1 X89 Y69 E256.67585
G1 X136 Y69 E261.09633
G1 X136 Y66 E261.37849
G1 X89 Y66 E265.79897
G1 X89 Y63 E266.08113
G1 X136 Y63 E270.50161
G1 X135.999 Y62.482 E270.55033
G1 X135.987 Y61.962 E270.59925
G1 X135.906 Y60.938 E270.69586
G1 X135.766 Y60.009 E270.78422
G1 X135.764 Y60 E270.78509
G1 X89.246 Y60 E275.16023
G1 X89.316 Y59.61 E275.1975
G1 X89.558 Y58.671 E275.2887
G1 X89.865 Y57.755 E275.37956
G1 X90.181 Y57 E275.45654
G1 X134.82 Y57 E279.65497
G1 X134.469 Y56.263 E279.73174
G1 X133.991 Y55.418 E279.82305
G1 X133.427 Y54.578 E279.91821
G1 X132.978 Y54 E279.98705
G1 X92.026 Y54 E283.8387
G1 X92.406 Y53.539 E283.89489
G1 X93.085 Y52.828 E283.98736
G1 X93.818 Y52.164 E284.08038
G1 X94.58 Y51.571 E284.17119
G1 X95.419 Y51.008 E284.26622
G1 X95.434 Y51 E284.26782
G1 X129.552 Y51 E287.47671
G0 F7200 X129.066 Y50.707
G1 F1800 X128.161 Y50.247 E287.57219
G1 X127.244 Y49.864 E287.66566
G1 X126.328 Y49.557 E287.75652
G1 X125.389 Y49.315 E287.84772
G1 X124.399 Y49.137 E287.94233
G1 X123.437 Y49.034 E288.03333
G1 X122.463 Y48.999 E288.12499
G1 X102.49 Y49 E290.00351
G1 X101.959 Y49.012 E290.05346
G1 X100.962 Y49.09 E290.14752
G1 X100.01 Y49.233 E290.23806
G1 X99.024 Y49.458 E290.33318
G1 X98.091 Y49.743 E290.42494
G1 X97.178 Y50.095 E290.51697
G1 X96.264 Y50.53 E290.61217
G1 X95.434 Y51 E290.70188
G0 F600 X95.434 Y51 Z1.06
G0 F7200 X135 Y87.565
;TIME_ELAPSED:62.545400
;LAYER:-3
;TYPE:SUPPORT-INTERFACE
G1 F1800 X135 Y57.426 E293.53654
G1 X135.253 Y58.082 E293.60267
G1 X135.541 Y59.023 E293.69522
G1 X135.766 Y60.009 E293.79034
G1 X135.906 Y60.938 E293.87871
G1 X135.987 Y61.962 E293.97532
G1 X135.999 Y62.482 E294.02424
G1 X136 Y82.473 E295.90445
G1 X135.965 Y83.436 E295.99508
G1 X135.862 Y84.398 E296.08607
G1 X135.684 Y85.388 E296.18068
G1 X135.442 Y86.327 E296.27188
G1 X135.14 Y87.229 E296.36135
G0 F7200 X135 Y57.426
G1 F1800 X134.904 Y57.177 E296.38644
G1 X134.469 Y56.263 E296.48165
G1 X133.991 Y55.418 E296.57296
G1 X133.427 Y54.578 E296.66812
G1 X132.835 Y53.817 E296.7588
G1 X132.171 Y53.084 E296.85182
G1 X132 Y52.921 E296.87404
G1 X132 Y92.082 E300.55724
G1 X131.917 Y92.168 E300.56848
G1 X131.182 Y92.834 E300.66177
G1 X130.419 Y93.427 E300.75266
G1 X129.58 Y93.99 E300.84769
G1 X128.999 Y94.319 E300.91048
G1 X129 Y50.674 E305.01542
G1 X128.161 Y50.247 E305.10396
G1 X127.244 Y49.864 E305.19743
G1 X126.328 Y49.557 E305.28829
G1 X126 Y49.473 E305.32013
G1 X125.999 Y95.533 E309.6522
G1 X125.977 Y95.539 E309.65435
G1 X124.989 Y95.765 E309.74967
G1 X124.037 Y95.908 E309.84022
G1 X123.04 Y95.986 E309.93427
G1 X122.999 Y95.987 E309.93813
G1 X123 Y49.019 E314.3556
G1 X122.463 Y48.999 E314.40614
G1 X120 Y48.999 E314.63779
G1 X119.999 Y95.999 E319.05828
G1 X116.999 Y95.999 E319.34043
G1 X117 Y48.999 E323.76091
G1 X114 Y48.999 E324.04307
G1 X113.999 Y95.999 E328.46355
G1 X110.999 Y95.999 E328.74571
G1 X111 Y48.999 E333.16619
G1 X108 Y48.999 E333.44835
G1 X107.999 Y95.999 E337.86883
G1 X104.999 Y95.999 E338.15099
G1 X105 Y48.999 E342.57147
G1 X102.49 Y49 E342.80754
G1 X102 Y49.011 E342.85364
G1 X101.999 Y95.979 E347.27111
G1 X101.562 Y95.964 E347.31224
G1 X100.6 Y95.861 E347.40323
G1 X99.61 Y95.683 E347.49784
G1 X98.999 Y95.525 E347.5572
G1 X99 Y49.465 E351.88927
G1 X98.091 Y49.743 E351.97867
G1 X97.178 Y50.095 E352.0707
G1 X96.264 Y50.53 E352.1659
G1 X96 Y50.679 E352.19442
G1 X95.999 Y94.324 E356.29935
G1 X95.933 Y94.291 E356.30629
G1 X95.115 Y93.797 E356.39617
G1 X94.286 Y93.21 E356.4917
G1 X93.539 Y92.593 E356.58283
G1 X92.999 Y92.077 E356.65308
G1 X93 Y52.917 E360.33618
G1 X92.406 Y53.539 E360.41707
G1 X91.789 Y54.286 E360.5082
G1 X91.202 Y55.115 E360.60374
G1 X90.708 Y55.933 E360.69361
G1 X90.248 Y56.838 E360.78909
G1 X90 Y57.431 E360.84955
G1 X89.999 Y87.573 E363.68449
G1 X89.743 Y86.908 E363.75151
G1 X89.458 Y85.975 E363.84326
G1 X89.233 Y84.989 E363.93838
G1 X89.09 Y84.037 E364.02892
G1 X89.012 Y83.034 E364.12354
G1 X89 Y82.509 E364.17293
G1 X88.999 Y62.525 E366.05248
G1 X89.034 Y61.562 E366.14312
G1 X89.137 Y60.6 E366.23411
G1 X89.315 Y59.61 E366.32872
G1 X89.558 Y58.671 E366.41994
G1 X89.865 Y57.755 E366.51081
G0 F600 X89.865 Y57.755 Z1.66
G0 F7200 X104 Y81
;TIME_ELAPSED:90.130669
;LAYER:0
M106 S255
;TYPE:WALL-OUTER
;MESH:single_mesh.stl
G1 F1800 X104 Y64 E368.90915
G1 X121 Y64 E371.3075
G1 X121 Y81 E373.70584
G1 X104 Y81 E376.10419
G0 F3600 X104 Y79.5
G0 X104.1 Y79.5
G0 X106.99 Y78.01
;TYPE:SKIN
G1 F1800 X106.99 Y66.99 E377.65888
G1 X118.01 Y66.99 E379.21357
G1 X118.01 Y78.01 E380.76827
G1 X106.99 Y78.01 E382.32296
G0 F3600 X110.6 Y76.659
G1 F1800 X108.339 Y74.398 E382.77407
G0 F3600 X108.339 Y70.155
G1 F1800 X114.843 Y76.659 E384.07172
G0 F3600 X116.659 Y74.232
G1 F1800 X110.766 Y68.339 E385.24747
G0 F3600 X115.008 Y68.339
G1 F1800 X116.659 Y69.99 E385.57687
;MESH:NONMESH
G0 F600 X116.659 Y69.99 Z1.71
G0 F3600 X104.07 Y80.93
G0 X104 Y81
;TIME_ELAPSED:95.380119
;LAYER:1
;TYPE:WALL-OUTER
;MESH:single_mesh.stl
G1 F1786.3 X104 Y64 E387.17576
G1 X121 Y64 E388.77466
G1 X121 Y81 E390.37356
G1 X104 Y81 E391.97246
G0 F5400 X104 Y79.5
G0 X104.1 Y79.5
G0 X106.99 Y78.01
;TYPE:SKIN
G1 F1786.3 X106.99 Y66.99 E393.00892
G1 X118.01 Y66.99 E394.04538
G1 X118.01 Y78.01 E395.08184
G1 X106.99 Y78.01 E396.1183
G0 F5400 X108.339 Y69.851
G1 F1786.3 X109.851 Y68.339 E396.31942
G0 F5400 X114.093 Y68.339
G1 F1786.3 X108.339 Y74.094 E397.08483
G0 F5400 X110.016 Y76.659
G1 F1786.3 X116.659 Y70.017 E397.96835
G0 F5400 X116.659 Y74.259
G1 F1786.3 X114.259 Y76.659 E398.28757
;MESH:NONMESH
G0 F600 X114.259 Y76.659 Z1.91
G0 F5400 X104.07 Y80.93
G0 X104 Y81
;TIME_ELAPSED:100.532253
;LAYER:2
;TYPE:WALL-OUTER
;MESH:single_mesh.stl
G1 F1711.2 X104 Y64 E399.88647
G1 X121 Y64 E401.48537
G1 X121 Y81 E403.08427
G1 X104 Y81 E404.68316
G0 F7200 X104 Y79.5
G0 X104.1 Y79.5
G0 X106.99 Y78.01
;TYPE:SKIN
G1 F1711.2 X106.99 Y66.99 E405.71963
G1 X118.01 Y66.99 E406.75609
G1 X118.01 Y78.01 E407.79255
G1 X106.99 Y78.01 E408.82901
G0 F7200 X110.6 Y76.659
G1 F1711.2 X108.339 Y74.398 E409.12975
G0 F7200 X108.339 Y70.155
G1 F1711.2 X114.843 Y76.659 E409.99485
G0 F7200 X116.659 Y74.232
G1 F1711.2 X110.766 Y68.339 E410.77868
G0 F7200 X115.008 Y68.339
G1 F1711.2 X116.659 Y69.99 E410.99828
;MESH:NONMESH
G0 F600 X116.659 Y69.99 Z2.11
G0 F7200 X104.07 Y80.93
G0 X104 Y81
;TIME_ELAPSED:105.842250
;LAYER:3
;TYPE:WALL-OUTER
;MESH:single_mesh.stl
G1 F1742.1 X104 Y64 E412.59718
G1 X121 Y64 E414.19608
G1 X121 Y81 E415.79497
G1 X104 Y81 E417.39387
G0 F7200 X104 Y79.5
G0 X104.1 Y79.5
G0 X106.99 Y78.01
;TYPE:SKIN
G1 F1742.1 X106.99 Y66.99 E418.43033
G1 X118.01 Y66.99 E419.4668
G1 X118.01 Y78.01 E420.50326
G1 X106.99 Y78.01 E421.53972
G0 F7200 X108.339 Y69.851
G1 F1742.1 X109.851 Y68.339 E421.74083
G0 F7200 X114.093 Y68.339
G1 F1742.1 X108.339 Y74.094 E422.50624
G0 F7200 X110.016 Y76.659
G1 F1742.1 X116.659 Y70.017 E423.38976
G0 F7200 X116.659 Y74.259
G1 F1742.1 X114.259 Y76.659 E423.70899
;MESH:NONMESH
G0 F600 X114.259 Y76.659 Z2.31
G0 F7200 X105.199 Y65.199
;TIME_ELAPSED:111.086474
;LAYER:4
;TYPE:FILL
;MESH:single_mesh.stl
G1 F2373.8 X119.799 Y79.799 E425.65095
G1 X120.329 Y80.329
G0 F7200 X105.199 Y79.799
G1 F2373.8 X119.799 Y65.199 E427.5929
G1 X120.329 Y64.669
G0 F7200 X104.07 Y80.93
G0 X104 Y81
;TYPE:WALL-OUTER
G1 F1186.9 X104 Y64 E429.1918
G1 X121 Y64 E430.7907
G1 X121 Y81 E432.3896
G1 X104 Y81 E433.98849
G0 F7200 X104 Y79.5
G0 X107 Y78
;MESH:NONMESH
G0 F600 X107 Y78 Z2.51
G0 F7200 X105.199 Y65.199
;TIME_ELAPSED:116.270417
;LAYER:5
;TYPE:FILL
;MESH:single_mesh.stl
G1 F2366.5 X119.799 Y79.799 E435.93045
G1 X120.329 Y80.329
G0 F7200 X105.199 Y79.799
G1 F2366.5 X119.799 Y65.199 E437.87241
G1 X120.329 Y64.669
G0 F7200 X104.07 Y80.93
G0 X104 Y81
;TYPE:WALL-OUTER
G1 F1183.2 X104 Y64 E439.4713
G1 X121 Y64 E441.0702
G1 X121 Y81 E442.6691
G1 X104 Y81 E444.26799
G0 F7200 X104 Y79.5
G0 X107 Y78
;MESH:NONMESH
G0 F600 X107 Y78 Z2.71
G0 F7200 X105.199 Y65.199
;TIME_ELAPSED:121.468291
;LAYER:6
