;FLAVOR:Marlin
;TIME:1103
;Filament used: 1.42596m
;Layer height: 0.2
;MINX:87.699
;MINY:47.699
;MINZ:0.36
;MAXX:137.3
;MAXY:97.3
;MAXZ:11.11
;Generated with Cura_SteamEngine 4.6.1
M140 S60
M105
M190 S60
M104 S200
M105
M109 S200
M82 ;absolute extrusion mode
G28 ;Home
G1 Z15.0 F6000 ;Move the platform down 15mm
;Prime the extruder
G92 E0
G1 F200 E3
G92 E0
G92 E0
G92 E0
G1 F1500 E-6.5
;LAYER_COUNT:49
;LAYER:-6
M107
G0 F7200 X90.276 Y54.522 Z0.36
;TYPE:SUPPORT-INTERFACE
G1 F1500 E0
G1 F1350 X90.376 Y54.371 E0.02169
G1 X90.887 Y53.657 E0.12682
G1 X91 Y53.509 E0.14911
G1 X91.576 Y52.818 E0.25683
G1 X91.677 Y52.705 E0.27497
G1 X92.302 Y52.056 E0.38286
G1 X92.427 Y51.936 E0.4036
G1 X93.098 Y51.333 E0.51162
G1 X93.214 Y51.237 E0.52965
G1 X93.926 Y50.687 E0.63738
G1 X94.085 Y50.574 E0.66073
G1 X94.823 Y50.084 E0.7668
G1 X94.949 Y50.008 E0.78442
G1 X95.743 Y49.562 E0.89347
G1 X95.893 Y49.484 E0.91371
G1 X96.708 Y49.101 E1.02153
G1 X96.851 Y49.041 E1.0401
G1 X97.71 Y48.712 E1.15024
G1 X97.86 Y48.66 E1.16925
G1 X98.71 Y48.405 E1.27551
G1 X98.883 Y48.359 E1.29694
G1 X99.778 Y48.158 E1.40677
G1 X99.908 Y48.135 E1.42258
G1 X100.813 Y48.001 E1.53212
G1 X100.982 Y47.983 E1.55247
G1 X102.055 Y47.908 E1.68127
G1 X102.56 Y47.9 E1.74174
G1 X122.503 Y47.901 E4.12964
G1 X123.627 Y47.946 E4.26434
G1 X124.544 Y48.048 E4.37481
G1 X124.719 Y48.073 E4.39598
G1 X125.608 Y48.237 E4.50422
G1 X125.731 Y48.265 E4.51932
G1 X126.625 Y48.499 E4.62997
G1 X126.788 Y48.548 E4.65035
G1 X127.63 Y48.835 E4.75687
G1 X127.796 Y48.898 E4.77813
G1 X128.599 Y49.239 E4.88259
G1 X128.788 Y49.327 E4.90755
G1 X129.699 Y49.801 E5.03051
G1 X130.478 Y50.276 E5.13976
G1 X130.629 Y50.376 E5.16144
G1 X131.343 Y50.887 E5.26657
G1 X131.491 Y51 E5.28887
G1 X132.182 Y51.576 E5.39658
G1 X132.295 Y51.677 E5.41473
G1 X132.944 Y52.302 E5.52262
G1 X133.064 Y52.427 E5.54336
G1 X133.667 Y53.098 E5.65138
G1 X133.763 Y53.214 E5.66941
G1 X134.322 Y53.938 E5.77893
G1 X134.416 Y54.069 E5.79824
G1 X134.916 Y54.823 E5.90657
G1 X134.992 Y54.949 E5.92418
G1 X135.438 Y55.743 E6.03323
G1 X135.516 Y55.893 E6.05347
G1 X135.899 Y56.708 E6.16129
G1 X135.959 Y56.851 E6.17986
G1 X136.288 Y57.71 E6.29
G1 X136.34 Y57.86 E6.30901
G1 X136.595 Y58.71 E6.41527
G1 X136.641 Y58.883 E6.4367
G1 X136.84 Y59.769 E6.54543
G1 X136.865 Y59.908 E6.56234
G1 X136.998 Y60.807 E6.67116
G1 X137.016 Y60.969 E6.69067
G1 X137.092 Y62.055 E6.82103
G1 X137.1 Y62.556 E6.88102
G1 X137.1 Y82.486 E9.26737
G1 X137.064 Y83.492 E9.3879
G1 X137.054 Y83.627 E9.40411
G1 X136.952 Y84.544 E9.51459
G1 X136.927 Y84.719 E9.53575
G1 X136.765 Y85.597 E9.64266
G1 X136.735 Y85.731 E9.6591
G1 X136.504 Y86.616 E9.76861
G1 X136.452 Y86.788 E9.79013
G1 X136.176 Y87.6 E9.89282
G1 X136.096 Y87.809 E9.91961
G1 X135.761 Y88.599 E10.02236
G1 X135.68 Y88.774 E10.04545
G1 X135.264 Y89.582 E10.15427
G1 X134.724 Y90.478 E10.27953
G1 X134.624 Y90.629 E10.30121
G1 X134.113 Y91.343 E10.40634
G1 X134 Y91.491 E10.42864
G1 X133.424 Y92.182 E10.53635
G1 X133.323 Y92.295 E10.5545
G1 X132.698 Y92.944 E10.66238
G1 X132.573 Y93.064 E10.68313
G1 X131.903 Y93.666 E10.79098
G1 X131.786 Y93.763 E10.80918
G1 X131.074 Y94.313 E10.91691
G1 X130.915 Y94.426 E10.94026
G1 X130.177 Y94.916 E11.04633
G1 X130.051 Y94.992 E11.06395
G1 X129.257 Y95.438 E11.17299
G1 X129.106 Y95.516 E11.19334
G1 X128.292 Y95.899 E11.30106
G1 X128.149 Y95.959 E11.31963
G1 X127.29 Y96.288 E11.42977
G1 X127.14 Y96.34 E11.44877
G1 X126.29 Y96.595 E11.55503
G1 X126.117 Y96.641 E11.57647
G1 X125.222 Y96.842 E11.6863
G1 X125.092 Y96.865 E11.70211
G1 X124.187 Y96.999 E11.81165
G1 X124.019 Y97.017 E11.83188
G1 X122.945 Y97.092 E11.96079
G1 X122.44 Y97.1 E12.02127
G1 X102.497 Y97.099 E14.40917
G1 X101.373 Y97.054 E14.54386
G1 X100.456 Y96.952 E14.65434
G1 X100.281 Y96.927 E14.6755
G1 X99.392 Y96.763 E14.78375
G1 X99.269 Y96.735 E14.79885
G1 X98.375 Y96.501 E14.9095
G1 X98.212 Y96.452 E14.92988
G1 X97.37 Y96.165 E15.03639
G1 X97.204 Y96.102 E15.05765
G1 X96.401 Y95.761 E15.16211
G1 X96.212 Y95.673 E15.18708
G1 X95.301 Y95.199 E15.31004
G1 X94.522 Y94.724 E15.41928
G1 X94.371 Y94.624 E15.44097
G1 X93.657 Y94.113 E15.5461
G1 X93.509 Y94 E15.5684
G1 X92.818 Y93.424 E15.67611
G1 X92.705 Y93.323 E15.69426
G1 X92.056 Y92.698 E15.80214
G1 X91.936 Y92.573 E15.82289
G1 X91.333 Y91.902 E15.93091
G1 X91.236 Y91.784 E15.9492
G1 X90.678 Y91.062 E16.05846
G1 X90.574 Y90.915 E16.08002
G1 X90.081 Y90.172 E16.18678
G1 X90.008 Y90.051 E16.2037
G1 X89.556 Y89.246 E16.31425
G1 X89.484 Y89.107 E16.33299
G1 X89.087 Y88.261 E16.44489
G1 X89.041 Y88.149 E16.45938
G1 X88.712 Y87.29 E16.56952
G1 X88.655 Y87.125 E16.59043
G1 X88.405 Y86.29 E16.69479
G1 X88.359 Y86.117 E16.71623
G1 X88.157 Y85.216 E16.82679
G1 X88.135 Y85.092 E16.84187
G1 X88 Y84.178 E16.95249
G1 X87.983 Y84.018 E16.97176
G1 X87.908 Y82.945 E17.10055
G1 X87.9 Y82.444 E17.16054
G1 X87.9 Y62.514 E19.54689
G1 X87.936 Y61.508 E19.66742
G1 X87.946 Y61.373 E19.68363
G1 X88.048 Y60.456 E19.79411
G1 X88.073 Y60.281 E19.81527
G1 X88.235 Y59.403 E19.92218
G1 X88.265 Y59.269 E19.93862
G1 X88.496 Y58.384 E20.04814
G1 X88.548 Y58.212 E20.06965
G1 X88.835 Y57.37 E20.17617
G1 X88.898 Y57.204 E20.19743
G1 X89.239 Y56.401 E20.30188
G1 X89.32 Y56.226 E20.32497
G1 X89.801 Y55.301 E20.44981
G1 X90.276 Y54.522 E20.55906
G0 F7200 X89.6 Y55.687
G1 F1350 X89.6 Y89.324 E24.58663
G0 F7200 X91.2 Y91.737
G1 F1350 X91.2 Y53.269 E29.19266
G0 F7200 X92.8 Y51.6
G1 F1350 X92.8 Y93.407 E34.19848
G0 F7200 X94.4 Y94.643
G1 F1350 X94.4 Y50.364 E39.50029
G0 F7200 X96 Y49.433
G1 F1350 X96 Y95.562 E45.02362
G0 F7200 X97.6 Y96.243
G1 F1350 X97.6 Y48.754 E50.70978
G0 F7200 X99.2 Y48.287
G1 F1350 X99.2 Y96.716 E56.5085
G0 F7200 X100.8 Y96.99
G1 F1350 X100.8 Y48.002 E62.37415
G0 F7200 X102.4 Y47.902
G1 F1350 X102.4 Y97.095 E68.26435
G0 F7200 X104 Y97.099
G1 F1350 X104 Y47.901 E74.15514
G0 F7200 X105.6 Y47.901
G1 F1350 X105.6 Y97.099 E80.04594
G0 F7200 X107.2 Y97.099
G1 F1350 X107.2 Y47.901 E85.93673
G0 F7200 X108.8 Y47.901
G1 F1350 X108.8 Y97.099 E91.82753
G0 F7200 X110.4 Y97.099
G1 F1350 X110.4 Y47.901 E97.71833
G0 F7200 X112 Y47.901
G1 F1350 X112 Y97.099 E103.60912
G0 F7200 X113.6 Y97.099
G1 F1350 X113.6 Y47.901 E109.49992
G0 F7200 X115.2 Y47.901
G1 F1350 X115.2 Y97.099 E115.39071
G0 F7200 X116.8 Y97.099
G1 F1350 X116.8 Y47.901 E121.28151
G0 F7200 X118.4 Y47.901
G1 F1350 X118.4 Y97.099 E127.1723
G0 F7200 X120 Y97.099
G1 F1350 X120 Y47.901 E133.0631
G0 F7200 X121.6 Y47.901
G1 F1350 X121.6 Y97.099 E138.9539
G0 F7200 X123.2 Y97.075
G1 F1350 X123.2 Y47.929 E144.83846
G0 F7200 X124.8 Y48.088
G1 F1350 X124.8 Y96.909 E150.68412
G0 F7200 X126.4 Y96.562
G1 F1350 X126.4 Y48.441 E156.44596
G0 F7200 X128 Y48.985
G1 F1350 X128 Y96.017 E162.07741
G0 F7200 X129.6 Y95.246
G1 F1350 X129.6 Y49.75 E167.52494
G0 F7200 X131.2 Y50.785
G1 F1350 X131.2 Y94.216 E172.72521
G0 F7200 X132.8 Y92.839
G1 F1350 X132.8 Y52.164 E177.59549
G0 F7200 X134.4 Y54.047
G1 F1350 X134.4 Y90.942 E182.01317
G0 F7200 X136 Y88.036
G1 F1350 X136 Y56.959 E185.73422
G0 F7200 X88 Y60.887
G1 F1350 X88 Y84.178 E188.523
G0 F600 X88 Y84.178 Z0.66
G0 F7200 X87.999 Y84.178
;TIME_ELAPSED:74.891281
;LAYER:-5
M140 S60
;TYPE:SUPPORT
G1 F1350 X87.982 Y84.018 E188.53906
G1 X87.961 Y83.718 E188.56907
G1 X101.287 Y97.044 E190.44951
G1 X101.372 Y97.054 E190.45805
G1 X102.495 Y97.099 E190.57019
G1 X102.756 Y97.099 E190.59623
G1 X87.899 Y82.242 E192.69272
G1 X87.899 Y80.827 E192.83391
G1 X104.17 Y97.099 E195.12999
G1 X105.584 Y97.099 E195.27108
G1 X87.899 Y79.413 E197.7667
G1 X87.899 Y77.999 E197.90779
G1 X106.998 Y97.099 E200.60293
G1 X108.412 Y97.099 E200.74402
G1 X87.899 Y76.585 E203.6387
G1 X87.899 Y75.171 E203.77979
G1 X109.827 Y97.099 E206.87406
G1 X111.241 Y97.099 E207.01515
G1 X87.899 Y73.756 E210.30903
G1 X87.899 Y72.342 E210.45012
G1 X112.655 Y97.099 E213.94353
G1 X114.069 Y97.099 E214.08462
G1 X87.899 Y70.928 E217.77756
G1 X87.899 Y69.514 E217.91865
G1 X115.483 Y97.099 E221.81112
G1 X116.898 Y97.099 E221.95231
G1 X87.899 Y68.1 E226.04438
G1 X87.899 Y66.685 E226.18557
G1 X118.312 Y97.099 E230.47725
G1 X119.726 Y97.099 E230.61834
G1 X87.899 Y65.271 E235.10954
G1 X87.899 Y63.857 E235.25063
G1 X121.14 Y97.099 E239.94136
G1 X122.439 Y97.099 E240.07098
G1 X122.553 Y97.097 E240.08236
G1 X87.901 Y62.445 E244.97213
G1 X87.935 Y61.507 E245.06578
G1 X87.944 Y61.373 E245.07918
G1 X87.974 Y61.104 E245.10619
G1 X123.895 Y97.025 E250.17503
G1 X124.018 Y97.017 E250.18733
G1 X124.186 Y96.999 E250.20419
G1 X125.091 Y96.865 E250.29548
G1 X125.14 Y96.855 E250.30047
G1 X88.148 Y59.864 E255.52037
G1 X88.234 Y59.402 E255.56726
G1 X88.264 Y59.268 E255.58096
G1 X88.409 Y58.711 E255.63839
G1 X126.292 Y96.593 E260.98402
G1 X127.139 Y96.34 E261.07222
G1 X127.289 Y96.288 E261.08806
G1 X127.369 Y96.257 E261.09662
G1 X88.744 Y57.632 E266.54703
G1 X88.834 Y57.369 E266.57476
G1 X88.897 Y57.203 E266.59248
G1 X89.145 Y56.618 E266.65588
G1 X128.382 Y95.855 E272.19265
G1 X129.104 Y95.515 E272.27227
G1 X129.256 Y95.438 E272.28928
G1 X129.334 Y95.393 E272.29826
G1 X89.608 Y55.667 E277.90403
G1 X89.8 Y55.3 E277.94536
G1 X90.124 Y54.768 E278.00751
G1 X130.232 Y94.877 E283.66725
G1 X130.914 Y94.426 E283.74884
G1 X131.072 Y94.313 E283.76822
G1 X131.077 Y94.308 E283.76892
G1 X90.694 Y53.924 E289.46747
G1 X90.886 Y53.657 E289.50029
G1 X90.999 Y53.508 E289.51895
G1 X91.314 Y53.13 E289.56804
G1 X131.873 Y93.689 E295.29136
G1 X131.902 Y93.666 E295.29505
G1 X132.572 Y93.063 E295.38499
G1 X132.617 Y93.019 E295.39127
G1 X91.983 Y52.385 E301.12517
G1 X92.301 Y52.055 E301.17089
G1 X92.426 Y51.936 E301.18812
G1 X92.701 Y51.689 E301.225
G1 X133.315 Y92.303 E306.95607
G1 X133.322 Y92.295 E306.95713
G1 X133.423 Y92.181 E306.97233
G1 X133.962 Y91.536 E307.0562
G1 X93.467 Y51.041 E312.77048
G1 X93.924 Y50.686 E312.82822
G1 X94.084 Y50.574 E312.84771
G1 X94.283 Y50.442 E312.87154
G1 X134.559 Y90.718 E318.55492
G1 X134.623 Y90.628 E318.56594
G1 X134.722 Y90.477 E318.58395
G1 X135.103 Y89.848 E318.65733
G1 X95.15 Y49.895 E324.29513
G1 X95.742 Y49.562 E324.36291
G1 X95.892 Y49.484 E324.37978
G1 X96.07 Y49.401 E324.39937
G1 X135.599 Y88.929 E329.97727
G1 X135.678 Y88.773 E329.99472
G1 X135.76 Y88.599 E330.01391
G1 X136.035 Y87.952 E330.08406
G1 X97.048 Y48.965 E335.58555
G1 X97.708 Y48.711 E335.65611
G1 X97.859 Y48.66 E335.67201
G1 X98.089 Y48.591 E335.69597
G1 X136.409 Y86.911 E341.10334
G1 X136.451 Y86.788 E341.11631
G1 X136.503 Y86.615 E341.13433
G1 X136.716 Y85.804 E341.218
G1 X99.2 Y48.288 E346.51191
G1 X99.777 Y48.158 E346.57093
G1 X99.907 Y48.134 E346.58412
G1 X100.39 Y48.064 E346.63282
G1 X136.941 Y84.615 E351.79056
G1 X136.951 Y84.543 E351.79781
G1 X137.053 Y83.627 E351.88977
G1 X137.063 Y83.491 E351.90338
G1 X137.069 Y83.329 E351.91956
G1 X101.674 Y47.934 E356.91417
G1 X102.053 Y47.907 E356.95209
G1 X102.559 Y47.9 E357.00258
G1 X103.055 Y47.9 E357.05207
G1 X137.099 Y81.945 E361.85612
G1 X137.099 Y80.53 E361.99731
G1 X104.469 Y47.9 E366.60175
G1 X105.883 Y47.9 E366.74284
G1 X137.099 Y79.116 E371.14776
G1 X137.099 Y77.702 E371.28885
G1 X107.297 Y47.9 E375.49423
G1 X108.712 Y47.9 E375.63542
G1 X137.099 Y76.288 E379.6412
G1 X137.099 Y74.874 E379.78229
G1 X110.126 Y47.9 E383.58854
G1 X111.54 Y47.9 E383.72963
G1 X137.099 Y73.459 E387.33628
G1 X137.099 Y72.045 E387.47737
G1 X112.954 Y47.9 E390.88449
G1 X114.368 Y47.9 E391.02558
G1 X137.099 Y70.631 E394.23317
G1 X137.099 Y69.217 E394.37426
G1 X115.783 Y47.9 E397.38225
G1 X117.197 Y47.9 E397.52334
G1 X137.099 Y67.803 E400.3318
G1 X137.099 Y66.388 E400.47299
G1 X118.611 Y47.9 E403.08184
G1 X120.025 Y47.9 E403.22293
G1 X137.099 Y64.974 E405.63226
G1 X137.099 Y63.56 E405.77335
G1 X121.439 Y47.9 E407.98314
G1 X122.502 Y47.9 E408.08921
G1 X122.868 Y47.915 E408.12576
G1 X137.093 Y62.139 E410.13299
G1 X137.091 Y62.054 E410.14147
G1 X137.015 Y60.968 E410.2501
G1 X136.997 Y60.806 E410.26637
G1 X136.967 Y60.599 E410.28724
G1 X124.399 Y48.032 E412.06065
G1 X124.542 Y48.047 E412.07499
G1 X124.718 Y48.073 E412.09274
G1 X125.606 Y48.236 E412.18283
G1 X125.729 Y48.264 E412.19542
G1 X126.159 Y48.377 E412.23978
G1 X136.632 Y58.85 E413.71763
G1 X136.594 Y58.709 E413.7322
G1 X136.339 Y57.86 E413.82066
G1 X136.287 Y57.709 E413.83659
G1 X135.958 Y56.851 E413.92828
G1 X135.898 Y56.707 E413.94385
G1 X135.893 Y56.697 E413.94496
G1 X128.315 Y49.119 E415.0143
G1 X128.597 Y49.239 E415.04488
G1 X128.787 Y49.327 E415.06577
G1 X129.698 Y49.8 E415.16819
G1 X130.477 Y50.275 E415.25923
G1 X130.628 Y50.375 E415.2773
G1 X131.342 Y50.887 E415.36497
G1 X131.49 Y51 E415.38355
G1 X132.181 Y51.575 E415.47325
G1 X132.224 Y51.613 E415.47898
G1 X133.288 Y52.678 E415.62919
G0 F7200 X133.062 Y52.427
G1 F1350 X132.943 Y52.301 E415.64648
G1 X132.294 Y51.676 E415.73638
G1 X132.224 Y51.613 E415.74578
G0 F7200 X90.007 Y90.05
G1 F1350 X90.081 Y90.171 E415.75993
G1 X90.574 Y90.914 E415.84891
G1 X90.677 Y91.061 E415.86682
G1 X91.235 Y91.783 E415.95786
G1 X91.332 Y91.901 E415.97311
G1 X91.935 Y92.572 E416.06312
G1 X92.056 Y92.696 E416.08041
G1 X92.705 Y93.321 E416.17031
G1 X92.817 Y93.422 E416.18536
G1 X93.508 Y93.999 E416.27519
G1 X93.657 Y94.112 E416.29385
G1 X94.371 Y94.622 E416.3814
G1 X94.522 Y94.723 E416.39952
G1 X95.037 Y95.037 E416.45971
G1 X89.953 Y89.953 E417.17712
G1 X89.555 Y89.246 E417.25807
G1 X89.482 Y89.106 E417.27382
G1 X89.086 Y88.26 E417.36703
G1 X89.04 Y88.149 E417.37902
G1 X88.715 Y87.301 E417.46963
G1 X97.686 Y96.272 E418.73554
G1 X98.211 Y96.452 E418.79092
G1 X98.374 Y96.5 E418.80787
G1 X99.267 Y96.735 E418.90001
G1 X99.39 Y96.763 E418.9126
G1 X99.637 Y96.808 E418.93765
G1 X88.188 Y85.359 E420.55322
G1 X88.156 Y85.216 E420.56785
G1 X88.133 Y85.091 E420.58053
G1 X87.999 Y84.178 E420.6726
G0 F600 X87.999 Y84.178 Z0.86
G0 F7200 X100.894 Y97.2
;TIME_ELAPSED:179.145922
;LAYER:-4
;TYPE:SUPPORT-INTERFACE
G1 F1800 X124.164 Y97.2 E421.44657
G1 X123.139 Y97.283 E421.48077
G1 X122.531 Y97.298 E421.501
G1 X102.526 Y97.3 E422.16637
G1 X101.486 Y97.263 E422.20098
G0 F7200 X124.164 Y97.2
G1 F1800 X124.214 Y97.196 E422.20265
G1 X125.267 Y97.035 E422.23808
G1 X126.287 Y96.8 E422.27289
G1 X98.733 Y96.8 E423.18934
G1 X98.327 Y96.696 E423.20328
G1 X97.441 Y96.4 E423.23435
G1 X127.551 Y96.4 E424.23581
G1 X128.362 Y96.086 E424.26474
G1 X128.542 Y96 E424.27137
G1 X96.454 Y96 E425.33862
G1 X96.31 Y95.94 E425.34381
G1 X95.638 Y95.6 E425.36886
G1 X129.375 Y95.6 E426.49096
G1 X130.079 Y95.2 E426.51789
G1 X94.925 Y95.2 E427.68712
G1 X94.425 Y94.899 E427.70653
G1 X94.284 Y94.8 E427.71226
G1 X130.705 Y94.8 E428.92363
G1 X131.19 Y94.475 E428.94304
G1 X131.286 Y94.4 E428.9471
G1 X93.717 Y94.4 E430.19665
G1 X93.53 Y94.268 E430.20426
G1 X93.204 Y94 E430.21829
G1 X131.798 Y94 E431.50194
G1 X132.035 Y93.815 E431.51194
G1 X132.271 Y93.6 E431.52255
G1 X92.717 Y93.6 E432.83813
G1 X92.679 Y93.568 E432.83978
G1 X92.293 Y93.2 E432.85752
G1 X132.712 Y93.2 E434.20186
G1 X132.836 Y93.088 E434.20742
G1 X133.11 Y92.8 E434.22064
G1 X91.877 Y92.8 E435.59205
G1 X91.515 Y92.4 E435.61
G1 X133.491 Y92.4 E437.00612
G1 X133.568 Y92.32 E437.00982
G1 X133.831 Y92 E437.02359
G1 X91.156 Y92 E438.44297
G1 X90.844 Y91.6 E438.45984
G1 X134.16 Y91.6 E439.90054
G1 X134.272 Y91.464 E439.9064
G1 X134.457 Y91.2 E439.91712
G1 X90.531 Y91.2 E441.3781
G1 X90.524 Y91.19 E441.37851
G1 X90.262 Y90.8 E441.39414
G1 X134.739 Y90.8 E442.87345
G1 X134.899 Y90.574 E442.88266
G1 X135.003 Y90.4 E442.8894
G1 X89.994 Y90.4 E444.38641
G1 X89.909 Y90.273 E444.39149
G1 X89.753 Y90 E444.40195
G1 X135.244 Y90 E445.91498
G1 X135.442 Y89.672 E445.92773
G1 X135.478 Y89.6 E445.9304
G1 X89.526 Y89.6 E447.45877
G1 X89.381 Y89.344 E447.46856
